!!!COM: muz.: T. Kozubek
!!!OTL: Córki Jeruzalem
**kern	**dynam	**kern	**dynam	**kern	**dynam	**kern	**dynam	**kern	**dynam	**kern	**dynam	**kern	**text	**dynam	**kern	**text	**kern	**kern	**kern	**dynam	**kern	**dynam	**kern	**dynam	**kern	**dynam
*part13	*part13	*part12	*part12	*part11	*part11	*part10	*part10	*part9	*part9	*part8	*part8	*part7	*part7	*part7	*part6	*part6	*part5	*part5	*part4	*part4	*part3	*part3	*part2	*part2	*part1	*part1
*staff14	*	*staff13	*	*staff12	*	*staff11	*	*staff10	*	*staff9	*	*staff8	*staff8	*	*staff7	*staff7	*staff6	*staff5	*staff4	*	*staff3	*	*staff2	*	*staff1	*
*I"Contrabbasso	*	*I"Violoncelli	*	*I"Viole	*	*I"Violini 2	*	*I"Violini 1	*	*I"Basso	*	*I"Soprano	*	*	*I"Tenore Solista	*	*I"Arpa	*	*I"Fagotto	*	*I"Clarinetto in B♭	*	*I"Oboe	*	*I"Flauto	*
*I'C-b.	*	*I'V-c.	*	*I'V-le	*	*I'V-ni 2	*	*I'V-ni 1	*	*I'B.	*	*I'S.	*	*	*I'T. Sol.	*	*I'Ar.	*	*I'Fag.	*	*I'Cl. in B♭	*	*I'Ob.	*	*I'Fl.	*
*clefF4	*	*clefF4	*	*clefC3	*	*clefG2	*	*clefG2	*	*clefF4	*	*clefG2	*	*	*clefGv2	*	*clefF4	*clefG2	*clefF4	*	*clefG2	*	*clefG2	*	*clefG2	*
*ITrd0c0	*	*	*	*	*	*	*	*	*	*	*	*	*	*	*	*	*	*	*	*	*ITrd1c2	*	*	*	*	*
*k[b-]	*	*k[b-]	*	*k[b-]	*	*k[b-]	*	*k[b-]	*	*k[b-]	*	*k[b-]	*	*	*k[b-]	*	*k[b-]	*k[b-]	*k[b-]	*	*k[b-]	*	*k[b-]	*	*k[b-]	*
*M4/4	*	*M4/4	*	*M4/4	*	*M4/4	*	*M4/4	*	*M4/4	*	*M4/4	*	*	*M4/4	*	*M4/4	*M4/4	*M4/4	*	*M4/4	*	*M4/4	*	*M4/4	*
*MM60	*MM60	*	*MM60	*	*MM60	*	*MM60	*	*MM60	*	*MM60	*	*MM60	*	*	*MM60	*	*MM60	*MM60	*	*MM60	*	*MM60	*	*MM60	*
=1	=1	=1	=1	=1	=1	=1	=1	=1	=1	=1	=1	=1	=1	=1	=1	=1	=1	=1	=1	=1	=1	=1	=1	=1	=1	=1
!	!	!	!	!	!	!	!	!	!	!	!	!	!	!	!	!	!	!	!	!	!	!	!	!	!LO:TX:a:t=[quarter]=60	!
8r	.	8r	.	4r	.	4r	.	4r	.	4r	.	4r	.	.	4r	.	4r	4r	4r	.	4r	.	4r	.	4r	.
!LO:TX:a:t=pizz.	!	!LO:TX:a:t=pizz.	!	!	!	!	!	!	!	!	!	!	!	!	!	!	!	!	!	!	!	!	!	!	!	!
8C	mf	8C	mf	.	.	.	.	.	.	.	.	.	.	.	.	.	.	.	.	.	.	.	.	.	.	.
=2	=2	=2	=2	=2	=2	=2	=2	=2	=2	=2	=2	=2	=2	=2	=2	=2	=2	=2	=2	=2	=2	=2	=2	=2	=2	=2
!	!	!	!	!LO:TX:a:t=pizz.	!	!LO:TX:a:t=pizz.	!	!LO:TX:a:t=pizz.	!	!	!	!	!	!	!	!	!	!	!	!	!	!	!	!	!	!
8FL	.	8FL	.	8A	mf	8c	mf	8f	mf	1r	.	1r	.	.	1r	.	1r	1r	1r	.	8f'L	mf	1r	.	1r	.
16FK	.	16FK	.	4r	.	4r	.	4r	.	.	.	.	.	.	.	.	.	.	.	.	16aL	.	.	.	.	.
8FJ	.	8FJ	.	.	.	.	.	.	.	.	.	.	.	.	.	.	.	.	.	.	16b-JJ	.	.	.	.	.
.	.	.	.	.	.	.	.	.	.	.	.	.	.	.	.	.	.	.	.	.	4cc	.	.	.	.	.
16r	.	16r	.	.	.	.	.	.	.	.	.	.	.	.	.	.	.	.	.	.	.	.	.	.	.	.
8C	.	8C	.	8A	.	8c	.	8f	.	.	.	.	.	.	.	.	.	.	.	.	.	.	.	.	.	.
8E-XL	.	8E-XL	.	8B-	.	8e-X	.	8g-X	.	.	.	.	.	.	.	.	.	.	.	.	8r	.	.	.	.	.
16E-K	.	16E-K	.	4r	.	4r	.	4r	.	.	.	.	.	.	.	.	.	.	.	.	8dd-X'	.	.	.	.	.
8E-	.	8E-	.	.	.	.	.	.	.	.	.	.	.	.	.	.	.	.	.	.	.	.	.	.	.	.
.	.	.	.	.	.	.	.	.	.	.	.	.	.	.	.	.	.	.	.	.	16ccLL	.	.	.	.	.
16BB-L	.	16BB-L	.	.	.	.	.	.	.	.	.	.	.	.	.	.	.	.	.	.	16b-	.	.	.	.	.
16E-	.	16E-	.	8B-	.	8e-	.	8g-	.	.	.	.	.	.	.	.	.	.	.	.	16a	.	.	.	.	.
16G-XJJ	.	16G-XJJ	.	.	.	.	.	.	.	.	.	.	.	.	.	.	.	.	.	.	16b-JJ	.	.	.	.	.
=3	=3	=3	=3	=3	=3	=3	=3	=3	=3	=3	=3	=3	=3	=3	=3	=3	=3	=3	=3	=3	=3	=3	=3	=3	=3	=3
8FL	.	8FL	.	8A	.	8c	.	8f	.	1r	.	1r	.	.	1r	.	1r	1r	1r	.	2cc	.	1r	.	8r	.
16FK	.	16FK	.	8r	.	8r	.	8r	.	.	.	.	.	.	.	.	.	.	.	.	.	.	.	.	16aaLL	mf
8FJ	.	8FJ	.	.	.	.	.	.	.	.	.	.	.	.	.	.	.	.	.	.	.	.	.	.	16bb-JJ	.
.	.	.	.	4r	.	4r	.	4r	.	.	.	.	.	.	.	.	.	.	.	.	.	.	.	.	16aaLL	.
16r	.	16r	.	.	.	.	.	.	.	.	.	.	.	.	.	.	.	.	.	.	.	.	.	.	16gg-X	.
8C	.	8C	.	.	.	.	.	.	.	.	.	.	.	.	.	.	.	.	.	.	.	.	.	.	16ff	.
.	.	.	.	.	.	.	.	.	.	.	.	.	.	.	.	.	.	.	.	.	.	.	.	.	16ee-XJJ	.
8FF	.	8FF	.	2r	.	2r	.	2r	.	.	.	.	.	.	.	.	.	.	.	.	4.r	.	.	.	4ff	.
16r	.	16r	.	.	.	.	.	.	.	.	.	.	.	.	.	.	.	.	.	.	.	.	.	.	.	.
16B-	.	16B-	.	.	.	.	.	.	.	.	.	.	.	.	.	.	.	.	.	.	.	.	.	.	.	.
16ALL	.	16ALL	.	.	.	.	.	.	.	.	.	.	.	.	.	.	.	.	.	.	.	.	.	.	4r	.
16G-X	.	16G-X	.	.	.	.	.	.	.	.	.	.	.	.	.	.	.	.	.	.	.	.	.	.	.	.
16F	.	16F	.	.	.	.	.	.	.	.	.	.	.	.	.	.	.	.	.	.	16fLL	.	.	.	.	.
16E-XJJ	.	16E-XJJ	.	.	.	.	.	.	.	.	.	.	.	.	.	.	.	.	.	.	16e-JJ	.	.	.	.	.
=4	=4	=4	=4	=4	=4	=4	=4	=4	=4	=4	=4	=4	=4	=4	=4	=4	=4	=4	=4	=4	=4	=4	=4	=4	=4	=4
8FL	.	8FL	.	8A	.	8c	.	8f	.	1r	.	1r	.	.	1r	.	1r	1r	1r	.	8f'L	.	1r	.	1r	.
16FK	.	16FK	.	4r	.	4r	.	4r	.	.	.	.	.	.	.	.	.	.	.	.	16aL	.	.	.	.	.
8FJ	.	8FJ	.	.	.	.	.	.	.	.	.	.	.	.	.	.	.	.	.	.	16b-JJ	.	.	.	.	.
.	.	.	.	.	.	.	.	.	.	.	.	.	.	.	.	.	.	.	.	.	4cc	.	.	.	.	.
16r	.	16r	.	.	.	.	.	.	.	.	.	.	.	.	.	.	.	.	.	.	.	.	.	.	.	.
8C	.	8C	.	8A	.	8c	.	8f	.	.	.	.	.	.	.	.	.	.	.	.	.	.	.	.	.	.
8E-XL	.	8E-XL	.	8B-	.	8e-X	.	8g-X	.	.	.	.	.	.	.	.	.	.	.	.	8r	.	.	.	.	.
16E-K	.	16E-K	.	4r	.	4r	.	4r	.	.	.	.	.	.	.	.	.	.	.	.	8dd-X'	.	.	.	.	.
8E-	.	8E-	.	.	.	.	.	.	.	.	.	.	.	.	.	.	.	.	.	.	.	.	.	.	.	.
.	.	.	.	.	.	.	.	.	.	.	.	.	.	.	.	.	.	.	.	.	16ccLL	.	.	.	.	.
16BB-L	.	16BB-L	.	.	.	.	.	.	.	.	.	.	.	.	.	.	.	.	.	.	16b-	.	.	.	.	.
16E-	.	16E-	.	8B-	.	8e-	.	8g-	.	.	.	.	.	.	.	.	.	.	.	.	16a	.	.	.	.	.
16G-XJJ	.	16G-XJJ	.	.	.	.	.	.	.	.	.	.	.	.	.	.	.	.	.	.	16g-XJJ	.	.	.	.	.
=5	=5	=5	=5	=5	=5	=5	=5	=5	=5	=5	=5	=5	=5	=5	=5	=5	=5	=5	=5	=5	=5	=5	=5	=5	=5	=5
8FL	.	8FL	.	8A	.	8c	.	8f	.	1r	.	1r	.	.	1r	.	1r	1r	1r	.	2f	.	8r	.	1r	.
16FK	.	16FK	.	8r	.	8r	.	8r	.	.	.	.	.	.	.	.	.	.	.	.	.	.	8dd-X'	mf	.	.
8FJ	.	8FJ	.	.	.	.	.	.	.	.	.	.	.	.	.	.	.	.	.	.	.	.	.	.	.	.
.	.	.	.	2r	.	2r	.	2r	.	.	.	.	.	.	.	.	.	.	.	.	.	.	16ccLL	.	.	.
16r	.	16r	.	.	.	.	.	.	.	.	.	.	.	.	.	.	.	.	.	.	.	.	16b-	.	.	.
8C	.	8C	.	.	.	.	.	.	.	.	.	.	.	.	.	.	.	.	.	.	.	.	16a	.	.	.
.	.	.	.	.	.	.	.	.	.	.	.	.	.	.	.	.	.	.	.	.	.	.	16g-XJJ	.	.	.
8FF	.	8FF	.	.	.	.	.	.	.	.	.	.	.	.	.	.	.	.	.	.	2r	.	4f	.	.	.
16r	.	16r	.	.	.	.	.	.	.	.	.	.	.	.	.	.	.	.	.	.	.	.	.	.	.	.
16B-	.	16B-	.	.	.	.	.	.	.	.	.	.	.	.	.	.	.	.	.	.	.	.	.	.	.	.
!	!	!	!	!LO:TX:a:t=arco	!	!LO:TX:a:t=arco	!	!LO:TX:a:t=arco	!	!	!	!	!	!	!	!	!	!	!	!	!	!	!	!	!	!
16ALL	.	16ALL	.	16ALL	.	16cLL	.	16fLL	.	.	.	.	.	.	.	.	.	.	.	.	.	.	4r	.	.	.
16G-X	.	16G-X	.	16B-	.	16d-X	.	16g-X	.	.	.	.	.	.	.	.	.	.	.	.	.	.	.	.	.	.
16F	.	16F	.	16c	.	16f	.	16a	.	.	.	.	.	.	.	.	.	.	.	.	.	.	.	.	.	.
16E-XJJ	.	16E-XJJ	.	16d-XJJ	.	16g-XJJ	.	16b-JJ	.	.	.	.	.	.	.	.	.	.	.	.	.	.	.	.	.	.
=6	=6	=6	=6	=6	=6	=6	=6	=6	=6	=6	=6	=6	=6	=6	=6	=6	=6	=6	=6	=6	=6	=6	=6	=6	=6	=6
8FL	.	8FL	.	8r	.	8r	.	8r	.	1r	.	1r	.	.	1r	.	1r	1r	1r	.	1r	.	1r	.	1r	.
16FK	.	16FK	.	16ALL	.	16fLL	.	16ccLL	.	.	.	.	.	.	.	.	.	.	.	.	.	.	.	.	.	.
8FJ	.	8FJ	.	16G-XJJ	.	16e-XJJ	.	16b-JJ	.	.	.	.	.	.	.	.	.	.	.	.	.	.	.	.	.	.
.	.	.	.	8A	.	8f	.	8cc	.	.	.	.	.	.	.	.	.	.	.	.	.	.	.	.	.	.
16r	.	16r	.	.	.	.	.	.	.	.	.	.	.	.	.	.	.	.	.	.	.	.	.	.	.	.
8C	.	8C	.	16r	.	16r	.	16r	.	.	.	.	.	.	.	.	.	.	.	.	.	.	.	.	.	.
.	.	.	.	16c	.	16a	.	16ff	.	.	.	.	.	.	.	.	.	.	.	.	.	.	.	.	.	.
8E-XL	.	8E-XL	.	(16e-XLL	.	(16ccLL	.	(16gg-XLL	.	.	.	.	.	.	.	.	.	.	.	.	.	.	.	.	.	.
.	.	.	.	16d-X)	.	16b-)	.	16ff)	.	.	.	.	.	.	.	.	.	.	.	.	.	.	.	.	.	.
16E-K	.	16E-K	.	(16d-	.	(16b-	.	(16ff	.	.	.	.	.	.	.	.	.	.	.	.	.	.	.	.	.	.
8E-	.	8E-	.	16cJJ)	.	16g-XJJ)	.	16ee-XJJ)	.	.	.	.	.	.	.	.	.	.	.	.	.	.	.	.	.	.
.	.	.	.	(16cLL	.	(16g-LL	.	(16ee-LL	.	.	.	.	.	.	.	.	.	.	.	.	.	.	.	.	.	.
16BB-L	.	16BB-L	.	16B-)	.	16f)	.	16dd-X)	.	.	.	.	.	.	.	.	.	.	.	.	.	.	.	.	.	.
16E-	.	16E-	.	(16B-	.	(16f	.	(16dd-	.	.	.	.	.	.	.	.	.	.	.	.	.	.	.	.	.	.
16G-XJJ	.	16G-XJJ	.	16G-JJ)	.	16e-JJ)	.	16b-JJ)	.	.	.	.	.	.	.	.	.	.	.	.	.	.	.	.	.	.
=7	=7	=7	=7	=7	=7	=7	=7	=7	=7	=7	=7	=7	=7	=7	=7	=7	=7	=7	=7	=7	=7	=7	=7	=7	=7	=7
8FL	.	8FL	.	2A	.	2f	.	2cc	.	1r	.	1r	.	.	1r	.	1r	1r	8r	.	1r	.	8r	.	1r	.
16FK	.	16FK	.	.	.	.	.	.	.	.	.	.	.	.	.	.	.	.	16ALL	mf	.	.	16ccLL	.	.	.
8FJ	.	8FJ	.	.	.	.	.	.	.	.	.	.	.	.	.	.	.	.	16B-JJ	.	.	.	16dd-XJJ	.	.	.
.	.	.	.	.	.	.	.	.	.	.	.	.	.	.	.	.	.	.	16ALL	.	.	.	16ccLL	.	.	.
16r	.	16r	.	.	.	.	.	.	.	.	.	.	.	.	.	.	.	.	16G-X	.	.	.	16b-	.	.	.
8C	.	8C	.	.	.	.	.	.	.	.	.	.	.	.	.	.	.	.	16F	.	.	.	16a	.	.	.
.	.	.	.	.	.	.	.	.	.	.	.	.	.	.	.	.	.	.	16E-XJJ	.	.	.	16b-JJ	.	.	.
8FF	.	8FF	.	4r	.	4r	.	4r	.	.	.	.	.	.	.	.	.	.	4F	.	.	.	4cc	.	.	.
16r	.	16r	.	.	.	.	.	.	.	.	.	.	.	.	.	.	.	.	.	.	.	.	.	.	.	.
16B-	.	16B-	.	.	.	.	.	.	.	.	.	.	.	.	.	.	.	.	.	.	.	.	.	.	.	.
16ALL	.	16ALL	.	16ALL	.	16cLL	.	16fLL	.	.	.	.	.	.	.	.	.	.	4r	.	.	.	4r	.	.	.
16G-X	.	16G-X	.	16B-	.	16d-X	.	16g-X	.	.	.	.	.	.	.	.	.	.	.	.	.	.	.	.	.	.
16F	.	16F	.	16c	.	16f	.	16a	.	.	.	.	.	.	.	.	.	.	.	.	.	.	.	.	.	.
16E-XJJ	.	16E-XJJ	.	16d-XJJ	.	16g-XJJ	.	16b-JJ	.	.	.	.	.	.	.	.	.	.	.	.	.	.	.	.	.	.
=8	=8	=8	=8	=8	=8	=8	=8	=8	=8	=8	=8	=8	=8	=8	=8	=8	=8	=8	=8	=8	=8	=8	=8	=8	=8	=8
8FL	.	8FL	.	8r	.	8r	.	8r	.	1r	.	1r	.	.	1r	.	1r	1r	1r	.	1r	.	1r	.	1r	.
16FK	.	16FK	.	16ALL	.	16fLL	.	16ccLL	.	.	.	.	.	.	.	.	.	.	.	.	.	.	.	.	.	.
8FJ	.	8FJ	.	16G-XJJ	.	16e-XJJ	.	16b-JJ	.	.	.	.	.	.	.	.	.	.	.	.	.	.	.	.	.	.
.	.	.	.	8A	.	8f	.	8cc	.	.	.	.	.	.	.	.	.	.	.	.	.	.	.	.	.	.
16r	.	16r	.	.	.	.	.	.	.	.	.	.	.	.	.	.	.	.	.	.	.	.	.	.	.	.
8C	.	8C	.	16r	.	16r	.	16r	.	.	.	.	.	.	.	.	.	.	.	.	.	.	.	.	.	.
.	.	.	.	16c	.	16a	.	16ff	.	.	.	.	.	.	.	.	.	.	.	.	.	.	.	.	.	.
8E-XL	.	8E-XL	.	(16e-XLL	.	(16ccLL	.	(16gg-XLL	.	.	.	.	.	.	.	.	.	.	.	.	.	.	.	.	.	.
.	.	.	.	16d-X)	.	16b-)	.	16ff)	.	.	.	.	.	.	.	.	.	.	.	.	.	.	.	.	.	.
16E-K	.	16E-K	.	(16d-	.	(16b-	.	(16ff	.	.	.	.	.	.	.	.	.	.	.	.	.	.	.	.	.	.
8E-	.	8E-	.	16cJJ)	.	16g-XJJ)	.	16ee-XJJ)	.	.	.	.	.	.	.	.	.	.	.	.	.	.	.	.	.	.
.	.	.	.	(16cLL	.	(16g-LL	.	(16ee-LL	.	.	.	.	.	.	.	.	.	.	.	.	.	.	.	.	.	.
16BB-L	.	16BB-L	.	16B-)	.	16f)	.	16dd-X)	.	.	.	.	.	.	.	.	.	.	.	.	.	.	.	.	.	.
16E-	.	16E-	.	(16B-	.	(16f	.	(16dd-	.	.	.	.	.	.	.	.	.	.	.	.	.	.	.	.	.	.
16G-XJJ	.	16G-XJJ	.	16G-JJ)	.	16e-JJ)	.	16b-JJ)	.	.	.	.	.	.	.	.	.	.	.	.	.	.	.	.	.	.
=9	=9	=9	=9	=9	=9	=9	=9	=9	=9	=9	=9	=9	=9	=9	=9	=9	=9	=9	=9	=9	=9	=9	=9	=9	=9	=9
8FL	.	8FL	.	2A	.	2f	.	2cc	.	1r	.	1r	.	.	1r	.	1r	1r	1r	.	1r	.	1r	.	2.r	.
16FK	.	16FK	.	.	.	.	.	.	.	.	.	.	.	.	.	.	.	.	.	.	.	.	.	.	.	.
8FJ	.	8FJ	.	.	.	.	.	.	.	.	.	.	.	.	.	.	.	.	.	.	.	.	.	.	.	.
16r	.	16r	.	.	.	.	.	.	.	.	.	.	.	.	.	.	.	.	.	.	.	.	.	.	.	.
8C	.	8C	.	.	.	.	.	.	.	.	.	.	.	.	.	.	.	.	.	.	.	.	.	.	.	.
4FF	.	4FF	.	2r	.	2r	.	2r	.	.	.	.	.	.	.	.	.	.	.	.	.	.	.	.	.	.
8r	.	8r	.	.	.	.	.	.	.	.	.	.	.	.	.	.	.	.	.	.	.	.	.	.	16ccLL	.
.	.	.	.	.	.	.	.	.	.	.	.	.	.	.	.	.	.	.	.	.	.	.	.	.	16dd-X	.
8C	.	8C	.	.	.	.	.	.	.	.	.	.	.	.	.	.	.	.	.	.	.	.	.	.	16cc	.
.	.	.	.	.	.	.	.	.	.	.	.	.	.	.	.	.	.	.	.	.	.	.	.	.	16b-JJ	.
=10||	=10||	=10||	=10||	=10||	=10||	=10||	=10||	=10||	=10||	=10||	=10||	=10||	=10||	=10||	=10||	=10||	=10||	=10||	=10||	=10||	=10||	=10||	=10||	=10||	=10||	=10||
4F	.	4F	.	8r	.	8r	.	8r	.	1r	.	1r	.	.	4F	Cór-	1r	1r	1r	.	4f	.	1r	.	4cc	.
!	!	!	!	!LO:TX:a:t=pizz.	!	!LO:TX:a:t=pizz.	!	!LO:TX:a:t=pizz.	!	!	!	!	!	!	!	!	!	!	!	!	!	!	!	!	!	!
.	.	.	.	16fKL	.	16aKL	.	16ccKL	.	.	.	.	.	.	.	.	.	.	.	.	.	.	.	.	.	.
.	.	.	.	8.f	.	8.a	.	8.cc	.	.	.	.	.	.	.	.	.	.	.	.	.	.	.	.	.	.
8r	.	8r	.	.	.	.	.	.	.	.	.	.	.	.	8cL	-ki	.	.	.	.	8ccL	.	.	.	4r	.
16CLL	.	16CLL	.	16fJk	.	16aJk	.	16ccJk	.	.	.	.	.	.	8cJ	Je-	.	.	.	.	8ccJ	.	.	.	.	.
16FJJ	.	16FJJ	.	16r	.	16r	.	16r	.	.	.	.	.	.	.	.	.	.	.	.	.	.	.	.	.	.
4G-X	.	4G-X	.	8r	.	8r	.	8r	.	.	.	.	.	.	4.B-	-ru-	.	.	.	.	4.b-	.	.	.	2r	.
.	.	.	.	16e-XKL	.	16g-XKL	.	16b-KL	.	.	.	.	.	.	.	.	.	.	.	.	.	.	.	.	.	.
.	.	.	.	8.e-	.	8.g-	.	8.b-	.	.	.	.	.	.	.	.	.	.	.	.	.	.	.	.	.	.
16r	.	16r	.	.	.	.	.	.	.	.	.	.	.	.	.	.	.	.	.	.	.	.	.	.	.	.
16BB-LL	.	16BB-LL	.	.	.	.	.	.	.	.	.	.	.	.	.	.	.	.	.	.	.	.	.	.	.	.
16E-X	.	16E-X	.	16e-Jk	.	16g-Jk	.	16b-Jk	.	.	.	.	.	.	16ALL	-za-	.	.	.	.	16aLL	.	.	.	.	.
16G-JJ	.	16G-JJ	.	16r	.	16r	.	16r	.	.	.	.	.	.	16B-JJ	.	.	.	.	.	16b-JJ	.	.	.	.	.
=11	=11	=11	=11	=11	=11	=11	=11	=11	=11	=11	=11	=11	=11	=11	=11	=11	=11	=11	=11	=11	=11	=11	=11	=11	=11	=11
4F	.	4F	.	8r	.	8r	.	8r	.	1r	.	1r	.	.	2.c	-lem,	1r	1r	1r	.	2.cc	.	1r	.	1r	.
.	.	.	.	16fKL	.	16aKL	.	16ccKL	.	.	.	.	.	.	.	.	.	.	.	.	.	.	.	.	.	.
.	.	.	.	8.f	.	8.a	.	8.cc	.	.	.	.	.	.	.	.	.	.	.	.	.	.	.	.	.	.
8.r	.	8.r	.	.	.	.	.	.	.	.	.	.	.	.	.	.	.	.	.	.	.	.	.	.	.	.
.	.	.	.	8fJ	.	8aJ	.	8ccJ	.	.	.	.	.	.	.	.	.	.	.	.	.	.	.	.	.	.
16e-X	.	16e-X	.	.	.	.	.	.	.	.	.	.	.	.	.	.	.	.	.	.	.	.	.	.	.	.
8f	.	8f	.	8c	.	8f	.	8a	.	.	.	.	.	.	.	.	.	.	.	.	.	.	.	.	.	.
4r	.	4r	.	8r	.	8r	.	8r	.	.	.	.	.	.	.	.	.	.	.	.	.	.	.	.	.	.
.	.	.	.	4r	.	4r	.	4r	.	.	.	.	.	.	4r	.	.	.	.	.	4r	.	.	.	.	.
8C	.	8C	.	.	.	.	.	.	.	.	.	.	.	.	.	.	.	.	.	.	.	.	.	.	.	.
=12	=12	=12	=12	=12	=12	=12	=12	=12	=12	=12	=12	=12	=12	=12	=12	=12	=12	=12	=12	=12	=12	=12	=12	=12	=12	=12
4F	.	4F	.	8r	.	8r	.	8r	.	1r	.	1r	.	.	4F	cór-	1r	1r	1r	.	4f	.	1r	.	1r	.
.	.	.	.	16cKL	.	16fKL	.	16aKL	.	.	.	.	.	.	.	.	.	.	.	.	.	.	.	.	.	.
.	.	.	.	8.c	.	8.f	.	8.a	.	.	.	.	.	.	.	.	.	.	.	.	.	.	.	.	.	.
8r	.	8r	.	.	.	.	.	.	.	.	.	.	.	.	8AL	-ki	.	.	.	.	8aL	.	.	.	.	.
16CLL	.	16CLL	.	16cJk	.	16fJk	.	16aJk	.	.	.	.	.	.	8AJ	Je-	.	.	.	.	8aJ	.	.	.	.	.
16FJJ	.	16FJJ	.	16r	.	16r	.	16r	.	.	.	.	.	.	.	.	.	.	.	.	.	.	.	.	.	.
4E-X	.	4E-X	.	8r	.	8r	.	8r	.	.	.	.	.	.	4.G-X	-ru-	.	.	.	.	4.g-X	.	.	.	.	.
.	.	.	.	16B-KL	.	16e-XKL	.	16g-XKL	.	.	.	.	.	.	.	.	.	.	.	.	.	.	.	.	.	.
.	.	.	.	8.B-	.	8.e-	.	8.g-	.	.	.	.	.	.	.	.	.	.	.	.	.	.	.	.	.	.
4C	.	4C	.	.	.	.	.	.	.	.	.	.	.	.	.	.	.	.	.	.	.	.	.	.	.	.
.	.	.	.	16B-Jk	.	16e-Jk	.	16g-Jk	.	.	.	.	.	.	16FLL	-za-	.	.	.	.	16fLL	.	.	.	.	.
.	.	.	.	16r	.	16r	.	16r	.	.	.	.	.	.	16G-JJ	.	.	.	.	.	16g-JJ	.	.	.	.	.
=13	=13	=13	=13	=13	=13	=13	=13	=13	=13	=13	=13	=13	=13	=13	=13	=13	=13	=13	=13	=13	=13	=13	=13	=13	=13	=13
*	*	*	*	*	*	*	*	*	*	*^	*	*^	*	*	*	*	*	*	*	*	*	*	*	*	*	*
4F	.	4F	.	8r	.	8r	.	8r	.	1r	1r	.	1r	1r	.	.	2.F	-lem!	1r	1r	2r	.	2f	.	1r	.	2r	.
.	.	.	.	16AKL	.	16cKL	.	16fKL	.	.	.	.	.	.	.	.	.	.	.	.	.	.	.	.	.	.	.	.
.	.	.	.	8.A	.	8.c	.	8.f	.	.	.	.	.	.	.	.	.	.	.	.	.	.	.	.	.	.	.	.
8r	.	8r	.	.	.	.	.	.	.	.	.	.	.	.	.	.	.	.	.	.	.	.	.	.	.	.	.	.
8C	.	8C	.;'	16AJk	.	16cJk	.	16fJk	.	.	.	.	.	.	.	.	.	.	.	.	.	.	.	.	.	.	.	.
.	.	.	.	16r	.	16r	.	16r	.	.	.	.	.	.	.	.	.	.	.	.	.	.	.	.	.	.	.	.
8FF	.	8FF	.	2r	.	2r	.	2r	.	.	.	.	.	.	.	.	.	.	.	.	4r	.	2r	.	.	.	8r	.
4r	.	4r	.	.	.	.	.	.	.	.	.	.	.	.	.	.	.	.	.	.	.	.	.	.	.	.	16aLL	.
.	.	.	.	.	.	.	.	.	.	.	.	.	.	.	.	.	.	.	.	.	.	.	.	.	.	.	16b-JJ	.
.	.	.	.	.	.	.	.	.	.	.	.	.	.	.	.	.	4r	.	.	.	4r	.	.	.	.	.	16ccLL	.
.	.	.	.	.	.	.	.	.	.	.	.	.	.	.	.	.	.	.	.	.	.	.	.	.	.	.	16dd-X	.
8C	.	8C	.	.	.	.	.	.	.	.	.	.	.	.	.	.	.	.	.	.	.	.	.	.	.	.	16cc	.
.	.	.	.	.	.	.	.	.	.	.	.	.	.	.	.	.	.	.	.	.	.	.	.	.	.	.	16b-JJ	.
=14	=14	=14	=14	=14	=14	=14	=14	=14	=14	=14	=14	=14	=14	=14	=14	=14	=14	=14	=14	=14	=14	=14	=14	=14	=14	=14	=14	=14
4F	.	4F	.	8r	.	8r	.	8r	.	8AL	4F	mf mf	4f	4c	Cór-	mf mf	1r	.	1r	1r	1r	.	4f	.	2r	.	4cc	.
.	.	.	.	16fKL	.	16aKL	.	16ccKL	.	8B-J	.	.	.	.	.	.	.	.	.	.	.	.	.	.	.	.	.	.
.	.	.	.	8.f	.	8.a	.	8.cc	.	.	.	.	.	.	.	.	.	.	.	.	.	.	.	.	.	.	.	.
8r	.	8r	.	.	.	.	.	.	.	8cL	8FL	.	8ccL	8fL	-ki	.	.	.	.	.	.	.	8ccL	.	.	.	4r	.
16CLL	.	16CLL	.	16fJk	.	16aJk	.	16ccJk	.	8AJ	8FJ	.	8ccJ	8fJ	Je-	.	.	.	.	.	.	.	8ccJ	.	.	.	.	.
16FJJ	.	16FJJ	.	16r	.	16r	.	16r	.	.	.	.	.	.	.	.	.	.	.	.	.	.	.	.	.	.	.	.
4G-X	.	4G-X	.	8r	.	8r	.	8r	.	4B-	4G-X	.	4.b-	4e-X	-ru-	.	.	.	.	.	.	.	4.b-	.	16e-XLL	.	2r	.
.	.	.	.	.	.	.	.	.	.	.	.	.	.	.	.	.	.	.	.	.	.	.	.	.	16fJJ	.	.	.
.	.	.	.	16e-XKL	.	16g-XKL	.	16b-KL	.	.	.	.	.	.	.	.	.	.	.	.	.	.	.	.	4g-X	.	.	.
.	.	.	.	8.e-	.	8.g-	.	8.b-	.	.	.	.	.	.	.	.	.	.	.	.	.	.	.	.	.	.	.	.
16r	.	16r	.	.	.	.	.	.	.	4d-X	4G-	.	.	4e-	.	.	.	.	.	.	.	.	.	.	.	.	.	.
16BB-LL	.	16BB-LL	.	.	.	.	.	.	.	.	.	.	.	.	.	.	.	.	.	.	.	.	.	.	.	.	.	.
16E-X	.	16E-X	.	16e-Jk	.	16g-Jk	.	16b-Jk	.	.	.	.	16aLL	.	-za-	.	.	.	.	.	.	.	16aLL	.	8e-	.	.	.
16G-JJ	.	16G-JJ	.	16r	.	16r	.	16r	.	.	.	.	16b-JJ	.	.	.	.	.	.	.	.	.	16b-JJ	.	.	.	.	.
=15	=15	=15	=15	=15	=15	=15	=15	=15	=15	=15	=15	=15	=15	=15	=15	=15	=15	=15	=15	=15	=15	=15	=15	=15	=15	=15	=15	=15
4F	.	4F	.	8r	.	8r	.	8r	.	1c	1F	.	1cc	(8.fL	-lem,	.	1r	.	1r	1r	1r	.	2.cc	.	8.fL	.	1r	.
.	.	.	.	16fKL	.	16aKL	.	16ccKL	.	.	.	.	.	.	.	.	.	.	.	.	.	.	.	.	.	.	.	.
.	.	.	.	8.f	.	8.a	.	8.cc	.	.	.	.	.	16g-XJk)	.	.	.	.	.	.	.	.	.	.	16g-XJk	.	.	.
8.r	.	8.r	.	.	.	.	.	.	.	.	.	.	.	16aLL	.	.	.	.	.	.	.	.	.	.	16aLL	.	.	.
.	.	.	.	.	.	.	.	.	.	.	.	.	.	16b-	.	.	.	.	.	.	.	.	.	.	16b-	.	.	.
.	.	.	.	8fJ	.	8aJ	.	8ccJ	.	.	.	.	.	16cc	.	.	.	.	.	.	.	.	.	.	16cc	.	.	.
16e-X	.	16e-X	.	.	.	.	.	.	.	.	.	.	.	16b-JJ	.	.	.	.	.	.	.	.	.	.	16b-JJ	.	.	.
8f	.	8f	.	8c	.	8f	.	8a	.	.	.	.	.	8.aL	.	.	.	.	.	.	.	.	.	.	8.aL	.	.	.
4r	.	4r	.	8r	.	8r	.	8r	.	.	.	.	.	.	.	.	.	.	.	.	.	.	.	.	.	.	.	.
.	.	.	.	.	.	.	.	.	.	.	.	.	.	16g-Jk	.	.	.	.	.	.	.	.	.	.	16g-Jk	.	.	.
.	.	.	.	4r	.	4r	.	4r	.	.	.	.	.	4f	.	.	.	.	.	.	.	.	4r	.	4f	.	.	.
8C	.	8r	.	.	.	.	.	.	.	.	.	.	.	.	.	.	.	.	.	.	.	.	.	.	.	.	.	.
=16	=16	=16	=16	=16	=16	=16	=16	=16	=16	=16	=16	=16	=16	=16	=16	=16	=16	=16	=16	=16	=16	=16	=16	=16	=16	=16	=16	=16
4F	.	4F	.	8r	.	8r	.	8r	.	8AL	4F	.	4f	4c	cór-	.	1r	.	1r	1r	2r	.	4f	.	1r	.	1r	.
.	.	.	.	16cKL	.	16fKL	.	16aKL	.	8B-J	.	.	.	.	.	.	.	.	.	.	.	.	.	.	.	.	.	.
.	.	.	.	8.c	.	8.f	.	8.a	.	.	.	.	.	.	.	.	.	.	.	.	.	.	.	.	.	.	.	.
8r	.	8r	.	.	.	.	.	.	.	8cL	8FL	.	8aL	8fL	-ki	.	.	.	.	.	.	.	8aL	.	.	.	.	.
16CLL	.	16CLL	.	16cJk	.	16fJk	.	16aJk	.	8AJ	8FJ	.	8aJ	8cJ	Je-	.	.	.	.	.	.	.	8aJ	.	.	.	.	.
16FJJ	.	16FJJ	.	16r	.	16r	.	16r	.	.	.	.	.	.	.	.	.	.	.	.	.	.	.	.	.	.	.	.
4E-X	.	4E-X	.	8r	.	8r	.	8r	.	4B-	4E-X	.	4.g-X	4d-X	-ru-	.	.	.	.	.	16B-LL	.	4.g-X	.	.	.	.	.
.	.	.	.	.	.	.	.	.	.	.	.	.	.	.	.	.	.	.	.	.	16cJJ	.	.	.	.	.	.	.
.	.	.	.	16B-KL	.	16e-XKL	.	16g-XKL	.	.	.	.	.	.	.	.	.	.	.	.	4d-X	.	.	.	.	.	.	.
.	.	.	.	8.B-	.	8.e-	.	8.g-	.	.	.	.	.	.	.	.	.	.	.	.	.	.	.	.	.	.	.	.
4C	.	4C	.	.	.	.	.	.	.	4c	4C	.	.	4e-X	.	.	.	.	.	.	.	.	.	.	.	.	.	.
.	.	.	.	16B-Jk	.	16e-Jk	.	16g-Jk	.	.	.	.	16fLL	.	-za-	.	.	.	.	.	8B-	.	16fLL	.	.	.	.	.
.	.	.	.	16r	.	16r	.	16r	.	.	.	.	16g-JJ	.	.	.	.	.	.	.	.	.	16g-JJ	.	.	.	.	.
=17	=17	=17	=17	=17	=17	=17	=17	=17	=17	=17	=17	=17	=17	=17	=17	=17	=17	=17	=17	=17	=17	=17	=17	=17	=17	=17	=17	=17
4F	.	4F	.	4A	.	4c	.	4f	.	2.c	2.F	.	2.f	2.f	-lem!	.	1r	.	1r	1r	16cLL	.	2f	.	1r	.	1r	.
.	.	.	.	.	.	.	.	.	.	.	.	.	.	.	.	.	.	.	.	.	16d-X	.	.	.	.	.	.	.
.	.	.	.	.	.	.	.	.	.	.	.	.	.	.	.	.	.	.	.	.	16c	.	.	.	.	.	.	.
.	.	.	.	.	.	.	.	.	.	.	.	.	.	.	.	.	.	.	.	.	16B-JJ	.	.	.	.	.	.	.
8r	.	8r	.	2r	.	2r	.	2r	.	.	.	.	.	.	.	.	.	.	.	.	16ALL	.	.	.	.	.	.	.
.	.	.	.	.	.	.	.	.	.	.	.	.	.	.	.	.	.	.	.	.	16B-	.	.	.	.	.	.	.
8C	.	8C	.	.	.	.	.	.	.	.	.	.	.	.	.	.	.	.	.	.	16A	.	.	.	.	.	.	.
.	.	.	.	.	.	.	.	.	.	.	.	.	.	.	.	.	.	.	.	.	16G-XJJ	.	.	.	.	.	.	.
8FF	.	8FF	.	.	.	.	.	.	.	.	.	.	.	.	.	.	.	.	.	.	4F	.	2r	.	.	.	.	.
4r	.	4r	.	.	.	.	.	.	.	.	.	.	.	.	.	.	.	.	.	.	.	.	.	.	.	.	.	.
!	!	!	!	!LO:TX:a:t=arco	!	!	!	!LO:TX:a:t=arco	!	!	!	!	!	!	!	!	!	!	!	!	!	!	!	!	!	!	!	!
.	.	.	.	16E-XLL	.	4r	.	16g-XLL	.	8r	8r	.	8r	8r	.	.	.	.	.	.	4r	.	.	.	.	.	.	.
.	.	.	.	16F	.	.	.	16a	.	.	.	.	.	.	.	.	.	.	.	.	.	.	.	.	.	.	.	.
8F	.	8F	.	16G-X	.	.	.	16b-	.	8A	8F	.	8f	8f	Nie	.	.	.	.	.	.	.	.	.	.	.	.	.
.	.	.	.	16AJJ	.	.	.	16ccJJ	.	.	.	.	.	.	.	.	.	.	.	.	.	.	.	.	.	.	.	.
=18	=18	=18	=18	=18	=18	=18	=18	=18	=18	=18	=18	=18	=18	=18	=18	=18	=18	=18	=18	=18	=18	=18	=18	=18	=18	=18	=18	=18
!	!	!	!	!	!	!LO:TX:a:t=arco	!	!	!	!	!	!	!	!	!	!	!	!	!	!	!	!	!	!	!	!	!	!
4BB-	.	4BB-	.	4B-	.	2f	.	4dd-X	.	4B-	4BB-	.	4dd-X	4f	budź-	.	1r	.	1r	1r	1r	.	1r	.	1r	.	1r	.
8r	.	8r	.	8cL	.	.	.	8ccL	.	8cL	8BB-L	.	8ccL	8fL	-cie	.	.	.	.	.	.	.	.	.	.	.	.	.
8BB-	.	8BB-	.	8d-XJ	.	.	.	8b-J	.	8d-XJ	8BB-J	.	8b-J	8fJ	mi-	.	.	.	.	.	.	.	.	.	.	.	.	.
4F	.	4F	.	8AL	.	2f	.	4cc	.	8AL	4F	.	4cc	4f	-ło-	.	.	.	.	.	.	.	.	.	.	.	.	.
.	.	.	.	8B-J	.	.	.	.	.	8B-J	.	.	.	.	.	.	.	.	.	.	.	.	.	.	.	.	.	.
8r	.	8r	.	4c	.	.	.	4a	.	4c	4F	.	4a	4f	-ści,	.	.	.	.	.	.	.	.	.	.	.	.	.
16CLL	.	16CLL	.	.	.	.	.	.	.	.	.	.	.	.	.	.	.	.	.	.	.	.	.	.	.	.	.	.
16FJJ	.	16FJJ	.	.	.	.	.	.	.	.	.	.	.	.	.	.	.	.	.	.	.	.	.	.	.	.	.	.
=19	=19	=19	=19	=19	=19	=19	=19	=19	=19	=19	=19	=19	=19	=19	=19	=19	=19	=19	=19	=19	=19	=19	=19	=19	=19	=19	=19	=19
4E-X	.	4E-X	.	8d-XL	.	8g-XL	.	8b-L	.	8d-XL	8E-XL	.	8b-L	8g-XL	pó-	.	1r	.	1r	1r	1r	.	1r	.	1r	.	2.r	.
.	.	.	.	8d-J	.	8g-J	.	8b-J	.	8d-J	8E-J	.	8b-J	8g-J	-ki	.	.	.	.	.	.	.	.	.	.	.	.	.
8r	.	8r	.	12d-L	.	12g-L	.	12b-L	.	12d-L	12E-L	.	12b-L	12g-L	sa-	.	.	.	.	.	.	.	.	.	.	.	.	.
.	.	.	.	12c	.	12f	.	12a	.	12c	12F	.	12a	12f	-ma	.	.	.	.	.	.	.	.	.	.	.	.	.
16E-LL	.	16E-LL	.	.	.	.	.	.	.	.	.	.	.	.	.	.	.	.	.	.	.	.	.	.	.	.	.	.
.	.	.	.	12B-J	.	12e-XJ	.	12b-J	.	12B-J	12G-XJ	.	12b-J	12e-XJ	nie	.	.	.	.	.	.	.	.	.	.	.	.	.
16G-XJJ	.	16G-XJJ	.	.	.	.	.	.	.	.	.	.	.	.	.	.	.	.	.	.	.	.	.	.	.	.	.	.
8.FL	.	8.FL	.	4c	.	16fLL	.	4cc	.	4c	4F	.	4cc	16fLL	ze-	.	.	.	.	.	.	.	.	.	.	.	.	.
.	.	.	.	.	.	16g-	.	.	.	.	.	.	.	16g-	.	.	.	.	.	.	.	.	.	.	.	.	.	.
.	.	.	.	.	.	16a	.	.	.	.	.	.	.	16a	.	.	.	.	.	.	.	.	.	.	.	.	.	.
16CJk	.	16CJk	.	.	.	16b-JJ	.	.	.	.	.	.	.	16b-JJ	.	.	.	.	.	.	.	.	.	.	.	.	.	.
8FF	.	8FF	.	16cLL	.	16aLL	.	16ccLL	.	8.c	8.F	.	8.cc	8.a	-chce,	.	.	.	.	.	.	.	.	.	.	.	16ffLL	.
.	.	.	.	16F	.	16c	.	16a	.	.	.	.	.	.	.	.	.	.	.	.	.	.	.	.	.	.	16aa	.
8r	.	8r	.	16G-X	.	16d-X	.	16b-	.	.	.	.	.	.	.	.	.	.	.	.	.	.	.	.	.	.	16bb-	.
.	.	.	.	16AJJ	.	16e-JJ	.	16ccJJ	.	16c	16F	.	16f	16f	nie	.	.	.	.	.	.	.	.	.	.	.	16cccJJ	.
=20	=20	=20	=20	=20	=20	=20	=20	=20	=20	=20	=20	=20	=20	=20	=20	=20	=20	=20	=20	=20	=20	=20	=20	=20	=20	=20	=20	=20
4BB-	.	4BB-	.	4B-	.	2f	.	4dd-X	.	4B-	4BB-	.	4dd-X	4f	budź-	.	1r	.	1r	1r	1r	.	1r	.	1r	.	4ddd-X	.
8r	.	8r	.	8cL	.	.	.	8ccL	.	8cL	8BB-L	.	8ccL	8fL	-cie	.	.	.	.	.	.	.	.	.	.	.	8cccL	.
8BB-	.	8BB-	.	8d-XJ	.	.	.	8b-J	.	8d-XJ	8BB-J	.	8b-J	8fJ	mi-	.	.	.	.	.	.	.	.	.	.	.	8bb-J	.
4F	.	4F	.	8AL	.	2f	.	4cc	.	8AL	4F	.	4cc	4f	-ło-	.	.	.	.	.	.	.	.	.	.	.	8aaL	.
.	.	.	.	8B-J	.	.	.	.	.	8B-J	.	.	.	.	.	.	.	.	.	.	.	.	.	.	.	.	8bb-J	.
8r	.	8r	.	4c	.	.	.	4a	.	4c	4F	.	4a	4f	-ści,	.	.	.	.	.	.	.	.	.	.	.	4ccc	.
16CLL	.	16CLL	.	.	.	.	.	.	.	.	.	.	.	.	.	.	.	.	.	.	.	.	.	.	.	.	.	.
16FJJ	.	16FJJ	.	.	.	.	.	.	.	.	.	.	.	.	.	.	.	.	.	.	.	.	.	.	.	.	.	.
=21	=21	=21	=21	=21	=21	=21	=21	=21	=21	=21	=21	=21	=21	=21	=21	=21	=21	=21	=21	=21	=21	=21	=21	=21	=21	=21	=21	=21
4E-X	.	4E-X	.	8B-L	.	8e-XL	.	8g-XL	.	8B-L	8E-XL	.	8g-XL	8e-XL	pó-	.	1r	.	1r	1r	1r	.	1r	.	1r	.	8bb-L	.
.	.	.	.	8B-J	.	8e-J	.	8g-J	.	8B-J	8E-J	.	8g-J	8e-J	-ki	.	.	.	.	.	.	.	.	.	.	.	8gg-XJ	.
8r	.	8r	.	12B-L	.	12e-L	.	12g-L	.	12B-L	12E-L	.	12g-L	12e-L	sa-	.	.	.	.	.	.	.	.	.	.	.	12ee-XL	.
.	.	.	.	12B-	.	12g-X	.	12b-	.	12B-	12E-	.	12b-	12g-	-ma	.	.	.	.	.	.	.	.	.	.	.	12gg-	.
8E-	.	8E-	.	.	.	.	.	.	.	.	.	.	.	.	.	.	.	.	.	.	.	.	.	.	.	.	.	.
.	.	.	.	12B-J	.	12e-J	.	12g-J	.	12B-J	12E-J	.	12g-J	12e-J	nie	.	.	.	.	.	.	.	.	.	.	.	12bb-J	.
4F	.	4F	.	4A	.	4c	.	4f	.	(4A	(4F	.	(4f	(4c	ze-	.	.	.	.	.	.	.	.	.	.	.	4ff	.
4G-X	.	4G-X	.	4B-	.	4d-X	.	4e-X	.	4B-)	4G-X)	.	4e-)	4d-X)	.	.	.	.	.	.	.	.	.	.	.	.	16ee-LL	.
.	.	.	.	.	.	.	.	.	.	.	.	.	.	.	.	.	.	.	.	.	.	.	.	.	.	.	16ff	.
.	.	.	.	.	.	.	.	.	.	.	.	.	.	.	.	.	.	.	.	.	.	.	.	.	.	.	16gg-	.
.	.	.	.	.	.	.	.	.	.	.	.	.	.	.	.	.	.	.	.	.	.	.	.	.	.	.	16ee-JJ	.
=22	=22	=22	=22	=22	=22	=22	=22	=22	=22	=22	=22	=22	=22	=22	=22	=22	=22	=22	=22	=22	=22	=22	=22	=22	=22	=22	=22	=22
4F	.	4F	.	2.A	.	2.c	.	2.f	.	2.A	2.F	.	2.f	2.c	-chce.	.	2.r	.	1r	1r	2.r	.	1r	.	1r	.	2.ff	.
8r	.	8r	.	.	.	.	.	.	.	.	.	.	.	.	.	.	.	.	.	.	.	.	.	.	.	.	.	.
8C	.	8C	.	.	.	.	.	.	.	.	.	.	.	.	.	.	.	.	.	.	.	.	.	.	.	.	.	.
2FF	.	4FF	.	.	.	.	.	.	.	.	.	.	.	.	.	.	.	.	.	.	.	.	.	.	.	.	.	.
.	.	4r	.	4r	.	4r	.	4r	.	4r	4r	.	4r	4r	.	.	8r	.	.	.	8r	.	.	.	.	.	4r	.
.	.	.	.	.	.	.	.	.	.	.	.	.	.	.	.	.	16cLL	Jak-	.	.	16AALL	.	.	.	.	.	.	.
.	.	.	.	.	.	.	.	.	.	.	.	.	.	.	.	.	16B-JJ	-że	.	.	16GG-XJJ	.	.	.	.	.	.	.
*	*	*	*	*	*	*	*	*	*	*v	*v	*	*	*	*	*	*	*	*	*	*	*	*	*	*	*	*	*
*	*	*	*	*	*	*	*	*	*	*	*	*v	*v	*	*	*	*	*	*	*	*	*	*	*	*	*	*
=23||	=23||	=23||	=23||	=23||	=23||	=23||	=23||	=23||	=23||	=23||	=23||	=23||	=23||	=23||	=23||	=23||	=23||	=23||	=23||	=23||	=23||	=23||	=23||	=23||	=23||	=23||
!	!	!LO:TX:a:t=arco	!	!	!	!	!	!	!	!	!	!	!	!	!	!	!	!	!	!	!	!	!	!	!	!
1r	.	4F'	p	4A'	p	4c'	p	1r	.	1r	.	1r	.	.	4c	pię-	1r	1r	8FFL	.	1r	.	1r	.	1r	.
.	.	.	.	.	.	.	.	.	.	.	.	.	.	.	.	.	.	.	8C	.	.	.	.	.	.	.
.	.	8r	.	8r	.	8r	.	.	.	.	.	.	.	.	4f	-kna	.	.	8F	.	.	.	.	.	.	.
.	.	8F'	.	8A'	.	8c'	.	.	.	.	.	.	.	.	.	.	.	.	8FF'J	.	.	.	.	.	.	.
.	.	4G-X'	.	4B-'	.	4e-X'	.	.	.	.	.	.	.	.	8e-XL	je-	.	.	8GG-XL	.	.	.	.	.	.	.
.	.	.	.	.	.	.	.	.	.	.	.	.	.	.	8d-X	-steś,	.	.	8BB-	.	.	.	.	.	.	.
.	.	8r	.	8r	.	8r	.	.	.	.	.	.	.	.	8c	Przy-	.	.	8E-X	.	.	.	.	.	.	.
.	.	8G-'	.	8B-'	.	8e-'	.	.	.	.	.	.	.	.	8B-J	-ja-	.	.	8GG-'J	.	.	.	.	.	.	.
=24	=24	=24	=24	=24	=24	=24	=24	=24	=24	=24	=24	=24	=24	=24	=24	=24	=24	=24	=24	=24	=24	=24	=24	=24	=24	=24
1r	.	4F'	.	4A'	.	4c'	.	1r	.	1r	.	1r	.	.	8.AL	-ciół-	1r	1r	8FFL	.	1r	.	1r	.	1r	.
.	.	.	.	.	.	.	.	.	.	.	.	.	.	.	.	.	.	.	8C	.	.	.	.	.	.	.
.	.	.	.	.	.	.	.	.	.	.	.	.	.	.	16B-Jk	-ko	.	.	.	.	.	.	.	.	.	.
.	.	8r	.	8r	.	8r	.	.	.	.	.	.	.	.	2c	ma!	.	.	8F	.	.	.	.	.	.	.
.	.	8G-X'	.	8B-'	.	8e-X'	.	.	.	.	.	.	.	.	.	.	.	.	8G-XJ	.	.	.	.	.	.	.
.	.	4F'	.	4A'	.	4f'	.	.	.	.	.	.	.	.	.	.	.	.	8F	.	.	.	.	.	.	.
.	.	.	.	.	.	.	.	.	.	.	.	.	.	.	.	.	.	.	8r	.	.	.	.	.	.	.
.	.	4r	.	4r	.	4r	.	.	.	.	.	.	.	.	4r	.	.	.	8CL	.	.	.	.	.	.	.
.	.	.	.	.	.	.	.	.	.	.	.	.	.	.	.	.	.	.	8AAJ	.	.	.	.	.	.	.
=25	=25	=25	=25	=25	=25	=25	=25	=25	=25	=25	=25	=25	=25	=25	=25	=25	=25	=25	=25	=25	=25	=25	=25	=25	=25	=25
1r	.	4BB-'	.	4d-X'	.	4f'	.	1r	.	1r	.	1r	.	.	4B-	O-	1r	1r	8BB-L	.	1r	.	1r	.	1r	.
.	.	.	.	.	.	.	.	.	.	.	.	.	.	.	.	.	.	.	8D-X	.	.	.	.	.	.	.
.	.	8r	.	8r	.	8r	.	.	.	.	.	.	.	.	4d-X	-czy	.	.	8F	.	.	.	.	.	.	.
.	.	8D-X'	.	8B-'	.	8f'	.	.	.	.	.	.	.	.	.	.	.	.	8B-'J	.	.	.	.	.	.	.
.	.	4E-X'	.	4B-'	.	4g-X'	.	.	.	.	.	.	.	.	8cL	twe	.	.	8E-XL	.	.	.	.	.	.	.
.	.	.	.	.	.	.	.	.	.	.	.	.	.	.	8B-	jak	.	.	8BB-	.	.	.	.	.	.	.
.	.	8r	.	8r	.	8r	.	.	.	.	.	.	.	.	8A	go-	.	.	8GG-X	.	.	.	.	.	.	.
.	.	8E-'	.	8B-'	.	8g-'	.	.	.	.	.	.	.	.	8G-XJ	-łę-	.	.	8EE-XJ	.	.	.	.	.	.	.
=26	=26	=26	=26	=26	=26	=26	=26	=26	=26	=26	=26	=26	=26	=26	=26	=26	=26	=26	=26	=26	=26	=26	=26	=26	=26	=26
1r	.	4F'	.	4A'	.	4f'	.	1r	.	1r	.	1r	.	.	4F	-bi-	1r	1r	8FFL	.	1r	.	2.r	.	1r	.
.	.	.	.	.	.	.	.	.	.	.	.	.	.	.	.	.	.	.	8C	.	.	.	.	.	.	.
.	.	8r	.	8r	.	8r	.	.	.	.	.	.	.	.	2F	-ce.	.	.	8F	.	.	.	.	.	.	.
.	.	8E-X'	.	8B-'	.	8g-X'	.	.	.	.	.	.	.	.	.	.	.	.	8E-XJ	.	.	.	.	.	.	.
.	.	4F'	.	4A'	.	4f'	.	.	.	.	.	.	.	.	.	.	.	.	8F'	.	.	.	.	.	.	.
.	.	.	.	.	.	.	.	.	.	.	.	.	.	.	.	.	.	.	8r	.	.	.	.	.	.	.
.	.	4r	.	4r	.	4r	.	.	.	.	.	.	.	.	8r	.	.	.	8FF'	.	.	.	8r	.	.	.
.	.	.	.	.	.	.	.	.	.	.	.	.	.	.	(16cLL	Jak	.	.	8r	.	.	.	16ccLL	.	.	.
.	.	.	.	.	.	.	.	.	.	.	.	.	.	.	16B-JJ)	.	.	.	.	.	.	.	16b-JJ	.	.	.
=27	=27	=27	=27	=27	=27	=27	=27	=27	=27	=27	=27	=27	=27	=27	=27	=27	=27	=27	=27	=27	=27	=27	=27	=27	=27	=27
1r	.	4F'	.	4A'	.	4c'	.	4f'	p	1r	.	1r	.	.	4c	li-	1r	1r	8FFL	.	1r	.	4cc	.	1r	.
.	.	.	.	.	.	.	.	.	.	.	.	.	.	.	.	.	.	.	8C	.	.	.	.	.	.	.
.	.	8r	.	8r	.	8r	.	8r	.	.	.	.	.	.	4f	-lia	.	.	8F	.	.	.	12aL	.	.	.
.	.	.	.	.	.	.	.	.	.	.	.	.	.	.	.	.	.	.	.	.	.	.	12cc	.	.	.
.	.	8F'	.	8A'	.	8c'	.	8f'	.	.	.	.	.	.	.	.	.	.	8FF'J	.	.	.	.	.	.	.
.	.	.	.	.	.	.	.	.	.	.	.	.	.	.	.	.	.	.	.	.	.	.	12ffJ	.	.	.
.	.	4G-X'	.	4B-'	.	4e-X'	.	4g-X'	.	.	.	.	.	.	(8e-XL	po-	.	.	8GG-XL	.	.	.	8ee-XL	.	.	.
.	.	.	.	.	.	.	.	.	.	.	.	.	.	.	8d-X)	.	.	.	8BB-	.	.	.	8dd-X	.	.	.
.	.	8r	.	8r	.	8r	.	8r	.	.	.	.	.	.	(8c	-śród	.	.	8E-X	.	.	.	8cc	.	.	.
.	.	8G-'	.	8B-'	.	8e-'	.	8g-'	.	.	.	.	.	.	8B-J)	.	.	.	8GG-'J	.	.	.	8b-J	.	.	.
=28	=28	=28	=28	=28	=28	=28	=28	=28	=28	=28	=28	=28	=28	=28	=28	=28	=28	=28	=28	=28	=28	=28	=28	=28	=28	=28
1r	.	4F'	.	4A'	.	4c'	.	4f'	.	1r	.	1r	.	.	(8.AL	cier-	1r	1r	8FFL	.	1r	.	8.aL	.	1r	.
.	.	.	.	.	.	.	.	.	.	.	.	.	.	.	.	.	.	.	8C	.	.	.	.	.	.	.
.	.	.	.	.	.	.	.	.	.	.	.	.	.	.	16B-Jk)	.	.	.	.	.	.	.	16b-Jk	.	.	.
.	.	8r	.	8r	.	8r	.	8r	.	.	.	.	.	.	2c	-ni,	.	.	8F	.	.	.	2cc	.	.	.
.	.	8G-X'	.	8B-'	.	8d-X'	.	8e-X'	.	.	.	.	.	.	.	.	.	.	8G-XJ	.	.	.	.	.	.	.
.	.	4F'	.	4A'	.	4c'	.	4f'	.	.	.	.	.	.	.	.	.	.	8F	.	.	.	.	.	.	.
.	.	.	.	.	.	.	.	.	.	.	.	.	.	.	.	.	.	.	8r	.	.	.	.	.	.	.
.	.	4r	.	4r	.	4r	.	4r	.	.	.	.	.	.	8r	.	.	.	8CL	.	.	.	8r	.	.	.
.	.	.	.	.	.	.	.	.	.	.	.	.	.	.	8c	tak	.	.	8AAJ	.	.	.	8cc	.	.	.
=29	=29	=29	=29	=29	=29	=29	=29	=29	=29	=29	=29	=29	=29	=29	=29	=29	=29	=29	=29	=29	=29	=29	=29	=29	=29	=29
1r	.	2BB-	.	2B-	.	2d-X	.	2f	.	1r	.	1r	.	.	4d-X	Przy-	1r	1r	8BB-L	.	1r	.	4dd-X	.	1r	.
.	.	.	.	.	.	.	.	.	.	.	.	.	.	.	.	.	.	.	8D-X	.	.	.	.	.	.	.
.	.	.	.	.	.	.	.	.	.	.	.	.	.	.	4f	-ja-	.	.	8F	.	.	.	12b-L	.	.	.
.	.	.	.	.	.	.	.	.	.	.	.	.	.	.	.	.	.	.	.	.	.	.	12dd-	.	.	.
.	.	.	.	.	.	.	.	.	.	.	.	.	.	.	.	.	.	.	8B-'J	.	.	.	.	.	.	.
.	.	.	.	.	.	.	.	.	.	.	.	.	.	.	.	.	.	.	.	.	.	.	12ffJ	.	.	.
.	.	2E-X	.	2B-	.	2e-X	.	2g-X	.	.	.	.	.	.	8e-XL	-ciół-	.	.	8E-XL	.	.	.	8gg-XL	.	.	.
.	.	.	.	.	.	.	.	.	.	.	.	.	.	.	8f	-ka	.	.	8BB-	.	.	.	8ff	.	.	.
.	.	.	.	.	.	.	.	.	.	.	.	.	.	.	8g-X	ma	.	.	8GG-X	.	.	.	8b-	.	.	.
.	.	.	.	.	.	.	.	.	.	.	.	.	.	.	8e-J	wśród	.	.	8EE-XJ	.	.	.	8dd-J	.	.	.
=30	=30	=30	=30	=30	=30	=30	=30	=30	=30	=30	=30	=30	=30	=30	=30	=30	=30	=30	=30	=30	=30	=30	=30	=30	=30	=30
2r	.	2F	.	2A	.	2c	.	2f	.	1r	.	1r	.	.	(8cL	dziew-	1r	1r	8FFL	.	1r	.	8ccL	.	2.r	.
.	.	.	.	.	.	.	.	.	.	.	.	.	.	.	8fJ)	.	.	.	8C	.	.	.	8b-J	.	.	.
.	.	.	.	.	.	.	.	.	.	.	.	.	.	.	2f	-cząt!	.	.	8F	.	.	.	16aLL	.	.	.
.	.	.	.	.	.	.	.	.	.	.	.	.	.	.	.	.	.	.	.	.	.	.	16b-	.	.	.
.	.	.	.	.	.	.	.	.	.	.	.	.	.	.	.	.	.	.	8E-XJ	.	.	.	16a	.	.	.
.	.	.	.	.	.	.	.	.	.	.	.	.	.	.	.	.	.	.	.	.	.	.	16g-XJJ	.	.	.
8.r	.	8.r	.	2r	.	2r	.	2r	.	.	.	.	.	.	.	.	.	.	8F'	.	.	.	4f	.	.	.
.	.	.	.	.	.	.	.	.	.	.	.	.	.	.	.	.	.	.	4.r	.	.	.	.	.	.	.
!LO:TX:a:t=pizz.	!	!LO:TX:a:t=pizz.	!	!	!	!	!	!	!	!	!	!	!	!	!	!	!	!	!	!	!	!	!	!	!	!
16B-	.	16B-	mf	.	.	.	.	.	.	.	.	.	.	.	.	.	.	.	.	.	.	.	.	.	.	.
16ALL	.	16ALL	.	.	.	.	.	.	.	.	.	.	.	.	4r	.	.	.	.	.	.	.	4r	.	16ccLL	.
16G-X	.	16G-X	.	.	.	.	.	.	.	.	.	.	.	.	.	.	.	.	.	.	.	.	.	.	16dd-X	.
16F	.	16F	.	.	.	.	.	.	.	.	.	.	.	.	.	.	.	.	.	.	.	.	.	.	16cc	.
16E-XJJ	.	16E-XJJ	.	.	.	.	.	.	.	.	.	.	.	.	.	.	.	.	.	.	.	.	.	.	16b-JJ	.
=31||	=31||	=31||	=31||	=31||	=31||	=31||	=31||	=31||	=31||	=31||	=31||	=31||	=31||	=31||	=31||	=31||	=31||	=31||	=31||	=31||	=31||	=31||	=31||	=31||	=31||	=31||
*	*	*	*	*	*	*	*	*	*	*^	*	*^	*	*	*	*	*	*	*	*	*	*	*	*	*	*
4F	.	4F	.	8r	.	8r	.	8r	.	8AL	4F	.	4f	4c	Cór-	.	1r	.	1r	1r	1r	.	4f	.	1r	.	4cc	.
!	!	!	!	!LO:TX:a:t=pizz.	!	!LO:TX:a:t=pizz.	!	!LO:TX:a:t=pizz.	!	!	!	!	!	!	!	!	!	!	!	!	!	!	!	!	!	!	!	!
.	.	.	.	16fKL	mf	16aKL	mf	16ccKL	mf	8B-J	.	.	.	.	.	.	.	.	.	.	.	.	.	.	.	.	.	.
.	.	.	.	8.f	.	8.a	.	8.cc	.	.	.	.	.	.	.	.	.	.	.	.	.	.	.	.	.	.	.	.
8r	.	8r	.	.	.	.	.	.	.	8cL	8FL	.	8ccL	8fL	-ki	.	.	.	.	.	.	.	8ccL	.	.	.	4r	.
16CLL	.	16CLL	.	16fJk	.	16aJk	.	16ccJk	.	8AJ	8FJ	.	8ccJ	8fJ	Je-	.	.	.	.	.	.	.	8ccJ	.	.	.	.	.
16FJJ	.	16FJJ	.	16r	.	16r	.	16r	.	.	.	.	.	.	.	.	.	.	.	.	.	.	.	.	.	.	.	.
4G-X	.	4G-X	.	8r	.	8r	.	8r	.	4B-	4G-X	.	4.b-	4e-X	-ru-	.	.	.	.	.	.	.	4.b-	.	.	.	2r	.
.	.	.	.	16e-XKL	.	16g-XKL	.	16b-KL	.	.	.	.	.	.	.	.	.	.	.	.	.	.	.	.	.	.	.	.
.	.	.	.	8.e-	.	8.g-	.	8.b-	.	.	.	.	.	.	.	.	.	.	.	.	.	.	.	.	.	.	.	.
16r	.	16r	.	.	.	.	.	.	.	4d-X	4G-	.	.	4e-	.	.	.	.	.	.	.	.	.	.	.	.	.	.
16BB-LL	.	16BB-LL	.	.	.	.	.	.	.	.	.	.	.	.	.	.	.	.	.	.	.	.	.	.	.	.	.	.
16E-X	.	16E-X	.	16e-Jk	.	16g-Jk	.	16b-Jk	.	.	.	.	16aLL	.	-za-	.	.	.	.	.	.	.	16aLL	.	.	.	.	.
16G-JJ	.	16G-JJ	.	16r	.	16r	.	16r	.	.	.	.	16b-JJ	.	.	.	.	.	.	.	.	.	16b-JJ	.	.	.	.	.
=32	=32	=32	=32	=32	=32	=32	=32	=32	=32	=32	=32	=32	=32	=32	=32	=32	=32	=32	=32	=32	=32	=32	=32	=32	=32	=32	=32	=32
4F	.	4F	.	8r	.	8r	.	8r	.	1c	1F	.	1cc	(8.fL	-lem,	.	1r	.	1r	1r	1r	.	2.cc	.	1r	.	1r	.
.	.	.	.	16fKL	.	16aKL	.	16ccKL	.	.	.	.	.	.	.	.	.	.	.	.	.	.	.	.	.	.	.	.
.	.	.	.	8.f	.	8.a	.	8.cc	.	.	.	.	.	16g-XJk)	.	.	.	.	.	.	.	.	.	.	.	.	.	.
8.r	.	8.r	.	.	.	.	.	.	.	.	.	.	.	16aLL	.	.	.	.	.	.	.	.	.	.	.	.	.	.
.	.	.	.	.	.	.	.	.	.	.	.	.	.	16b-	.	.	.	.	.	.	.	.	.	.	.	.	.	.
.	.	.	.	8fJ	.	8aJ	.	8ccJ	.	.	.	.	.	16cc	.	.	.	.	.	.	.	.	.	.	.	.	.	.
16e-X	.	16e-X	.	.	.	.	.	.	.	.	.	.	.	16b-JJ	.	.	.	.	.	.	.	.	.	.	.	.	.	.
8f	.	8f	.	8c	.	8f	.	8a	.	.	.	.	.	8.aL	.	.	.	.	.	.	.	.	.	.	.	.	.	.
4r	.	4r	.	8r	.	8r	.	8r	.	.	.	.	.	.	.	.	.	.	.	.	.	.	.	.	.	.	.	.
.	.	.	.	.	.	.	.	.	.	.	.	.	.	16g-Jk	.	.	.	.	.	.	.	.	.	.	.	.	.	.
.	.	.	.	4r	.	4r	.	4r	.	.	.	.	.	4f	.	.	.	.	.	.	.	.	4r	.	.	.	.	.
8C	.	8r	.	.	.	.	.	.	.	.	.	.	.	.	.	.	.	.	.	.	.	.	.	.	.	.	.	.
=33	=33	=33	=33	=33	=33	=33	=33	=33	=33	=33	=33	=33	=33	=33	=33	=33	=33	=33	=33	=33	=33	=33	=33	=33	=33	=33	=33	=33
4F	.	4F	.	8r	.	8r	.	8r	.	8AL	4F	.	4f	4c	cór-	.	1r	.	1r	1r	1r	.	4f	.	1r	.	1r	.
.	.	.	.	16cKL	.	16fKL	.	16aKL	.	8B-J	.	.	.	.	.	.	.	.	.	.	.	.	.	.	.	.	.	.
.	.	.	.	8.c	.	8.f	.	8.a	.	.	.	.	.	.	.	.	.	.	.	.	.	.	.	.	.	.	.	.
8r	.	8r	.	.	.	.	.	.	.	8cL	8FL	.	8aL	8fL	-ki	.	.	.	.	.	.	.	8aL	.	.	.	.	.
16CLL	.	16CLL	.	16cJk	.	16fJk	.	16aJk	.	8AJ	8FJ	.	8aJ	8cJ	Je-	.	.	.	.	.	.	.	8aJ	.	.	.	.	.
16FJJ	.	16FJJ	.	16r	.	16r	.	16r	.	.	.	.	.	.	.	.	.	.	.	.	.	.	.	.	.	.	.	.
4E-X	.	4E-X	.	8r	.	8r	.	8r	.	4B-	4E-X	.	4.g-X	4d-X	-ru-	.	.	.	.	.	.	.	4.g-X	.	.	.	.	.
.	.	.	.	16B-KL	.	16e-XKL	.	16g-XKL	.	.	.	.	.	.	.	.	.	.	.	.	.	.	.	.	.	.	.	.
.	.	.	.	8.B-	.	8.e-	.	8.g-	.	.	.	.	.	.	.	.	.	.	.	.	.	.	.	.	.	.	.	.
4C	.	4C	.	.	.	.	.	.	.	4c	4C	.	.	4e-X	.	.	.	.	.	.	.	.	.	.	.	.	.	.
.	.	.	.	16B-Jk	.	16e-Jk	.	16g-Jk	.	.	.	.	16fLL	.	-za-	.	.	.	.	.	.	.	16fLL	.	.	.	.	.
.	.	.	.	16r	.	16r	.	16r	.	.	.	.	16g-JJ	.	.	.	.	.	.	.	.	.	16g-JJ	.	.	.	.	.
=34	=34	=34	=34	=34	=34	=34	=34	=34	=34	=34	=34	=34	=34	=34	=34	=34	=34	=34	=34	=34	=34	=34	=34	=34	=34	=34	=34	=34
4F	.	4F	.	4A	.	4c	.	4f	.	2.c	2.F	.	2.f	2.f	-lem!	.	1r	.	1r	1r	2r	.	2f	.	1r	.	2r	.
8r	.	8r	.	4r	.	4r	.	4r	.	.	.	.	.	.	.	.	.	.	.	.	.	.	.	.	.	.	.	.
8C	.	8C	.	.	.	.	.	.	.	.	.	.	.	.	.	.	.	.	.	.	.	.	.	.	.	.	.	.
8FF	.	8FF	.	2r	.	2r	.	2r	.	.	.	.	.	.	.	.	.	.	.	.	4r	.	2r	.	.	.	8r	.
4r	.	4r	.	.	.	.	.	.	.	.	.	.	.	.	.	.	.	.	.	.	.	.	.	.	.	.	16aLL	.
.	.	.	.	.	.	.	.	.	.	.	.	.	.	.	.	.	.	.	.	.	.	.	.	.	.	.	16b-JJ	.
.	.	.	.	.	.	.	.	.	.	4r	4r	.	4r	4r	.	.	.	.	.	.	4r	.	.	.	.	.	16ccLL	.
.	.	.	.	.	.	.	.	.	.	.	.	.	.	.	.	.	.	.	.	.	.	.	.	.	.	.	16dd-X	.
8C	.	8C	.	.	.	.	.	.	.	.	.	.	.	.	.	.	.	.	.	.	.	.	.	.	.	.	16cc	.
.	.	.	.	.	.	.	.	.	.	.	.	.	.	.	.	.	.	.	.	.	.	.	.	.	.	.	16b-JJ	.
=35	=35	=35	=35	=35	=35	=35	=35	=35	=35	=35	=35	=35	=35	=35	=35	=35	=35	=35	=35	=35	=35	=35	=35	=35	=35	=35	=35	=35
4F	.	4F	.	8r	.	8r	.	8r	.	8AL	4F	.	4f	4c	Cór-	.	1r	.	1r	1r	1r	.	4f	.	2r	.	4cc	.
.	.	.	.	16fKL	.	16aKL	.	16ccKL	.	8B-J	.	.	.	.	.	.	.	.	.	.	.	.	.	.	.	.	.	.
.	.	.	.	8.f	.	8.a	.	8.cc	.	.	.	.	.	.	.	.	.	.	.	.	.	.	.	.	.	.	.	.
8r	.	8r	.	.	.	.	.	.	.	8cL	8FL	.	8ccL	8fL	-ki	.	.	.	.	.	.	.	8ccL	.	.	.	4r	.
16CLL	.	16CLL	.	16fJk	.	16aJk	.	16ccJk	.	8AJ	8FJ	.	8ccJ	8fJ	Je-	.	.	.	.	.	.	.	8ccJ	.	.	.	.	.
16FJJ	.	16FJJ	.	16r	.	16r	.	16r	.	.	.	.	.	.	.	.	.	.	.	.	.	.	.	.	.	.	.	.
4G-X	.	4G-X	.	8r	.	8r	.	8r	.	4B-	4G-X	.	4.b-	4e-X	-ru-	.	.	.	.	.	.	.	4.b-	.	16e-XLL	.	2r	.
.	.	.	.	.	.	.	.	.	.	.	.	.	.	.	.	.	.	.	.	.	.	.	.	.	16fJJ	.	.	.
.	.	.	.	16e-XKL	.	16g-XKL	.	16b-KL	.	.	.	.	.	.	.	.	.	.	.	.	.	.	.	.	4g-X	.	.	.
.	.	.	.	8.e-	.	8.g-	.	8.b-	.	.	.	.	.	.	.	.	.	.	.	.	.	.	.	.	.	.	.	.
16r	.	16r	.	.	.	.	.	.	.	4d-X	4G-	.	.	4e-	.	.	.	.	.	.	.	.	.	.	.	.	.	.
16BB-LL	.	16BB-LL	.	.	.	.	.	.	.	.	.	.	.	.	.	.	.	.	.	.	.	.	.	.	.	.	.	.
16E-X	.	16E-X	.	16e-Jk	.	16g-Jk	.	16b-Jk	.	.	.	.	16aLL	.	-za-	.	.	.	.	.	.	.	16aLL	.	8e-	.	.	.
16G-JJ	.	16G-JJ	.	16r	.	16r	.	16r	.	.	.	.	16b-JJ	.	.	.	.	.	.	.	.	.	16b-JJ	.	.	.	.	.
=36	=36	=36	=36	=36	=36	=36	=36	=36	=36	=36	=36	=36	=36	=36	=36	=36	=36	=36	=36	=36	=36	=36	=36	=36	=36	=36	=36	=36
4F	.	4F	.	8r	.	8r	.	8r	.	1c	1F	.	1cc	(8.fL	-lem,	.	1r	.	1r	1r	1r	.	2.cc	.	8.fL	.	1r	.
.	.	.	.	16fKL	.	16aKL	.	16ccKL	.	.	.	.	.	.	.	.	.	.	.	.	.	.	.	.	.	.	.	.
.	.	.	.	8.f	.	8.a	.	8.cc	.	.	.	.	.	16g-XJk)	.	.	.	.	.	.	.	.	.	.	16g-XJk	.	.	.
8.r	.	8.r	.	.	.	.	.	.	.	.	.	.	.	16aLL	.	.	.	.	.	.	.	.	.	.	16aLL	.	.	.
.	.	.	.	.	.	.	.	.	.	.	.	.	.	16b-	.	.	.	.	.	.	.	.	.	.	16b-	.	.	.
.	.	.	.	8fJ	.	8aJ	.	8ccJ	.	.	.	.	.	16cc	.	.	.	.	.	.	.	.	.	.	16cc	.	.	.
16e-X	.	16e-X	.	.	.	.	.	.	.	.	.	.	.	16b-JJ	.	.	.	.	.	.	.	.	.	.	16b-JJ	.	.	.
8f	.	8f	.	8c	.	8f	.	8a	.	.	.	.	.	8.aL	.	.	.	.	.	.	.	.	.	.	8.aL	.	.	.
4r	.	4r	.	8r	.	8r	.	8r	.	.	.	.	.	.	.	.	.	.	.	.	.	.	.	.	.	.	.	.
.	.	.	.	.	.	.	.	.	.	.	.	.	.	16g-Jk	.	.	.	.	.	.	.	.	.	.	16g-Jk	.	.	.
.	.	.	.	4r	.	4r	.	4r	.	.	.	.	.	4f	.	.	.	.	.	.	.	.	4r	.	4f	.	.	.
8C	.	8r	.	.	.	.	.	.	.	.	.	.	.	.	.	.	.	.	.	.	.	.	.	.	.	.	.	.
=37	=37	=37	=37	=37	=37	=37	=37	=37	=37	=37	=37	=37	=37	=37	=37	=37	=37	=37	=37	=37	=37	=37	=37	=37	=37	=37	=37	=37
4F	.	4F	.	8r	.	8r	.	8r	.	8AL	4F	.	4f	4c	cór-	.	1r	.	1r	1r	2r	.	4f	.	1r	.	1r	.
.	.	.	.	16cKL	.	16fKL	.	16aKL	.	8B-J	.	.	.	.	.	.	.	.	.	.	.	.	.	.	.	.	.	.
.	.	.	.	8.c	.	8.f	.	8.a	.	.	.	.	.	.	.	.	.	.	.	.	.	.	.	.	.	.	.	.
8r	.	8r	.	.	.	.	.	.	.	8cL	8FL	.	8aL	8fL	-ki	.	.	.	.	.	.	.	8aL	.	.	.	.	.
16CLL	.	16CLL	.	16cJk	.	16fJk	.	16aJk	.	8AJ	8FJ	.	8aJ	8cJ	Je-	.	.	.	.	.	.	.	8aJ	.	.	.	.	.
16FJJ	.	16FJJ	.	16r	.	16r	.	16r	.	.	.	.	.	.	.	.	.	.	.	.	.	.	.	.	.	.	.	.
4E-X	.	4E-X	.	8r	.	8r	.	8r	.	4B-	4E-X	.	4.g-X	4d-X	-ru-	.	.	.	.	.	16B-LL	.	4.g-X	.	.	.	.	.
.	.	.	.	.	.	.	.	.	.	.	.	.	.	.	.	.	.	.	.	.	16cJJ	.	.	.	.	.	.	.
.	.	.	.	16B-KL	.	16e-XKL	.	16g-XKL	.	.	.	.	.	.	.	.	.	.	.	.	4d-X	.	.	.	.	.	.	.
.	.	.	.	8.B-	.	8.e-	.	8.g-	.	.	.	.	.	.	.	.	.	.	.	.	.	.	.	.	.	.	.	.
4C	.	4C	.	.	.	.	.	.	.	4c	4C	.	.	4e-X	.	.	.	.	.	.	.	.	.	.	.	.	.	.
.	.	.	.	16B-Jk	.	16e-Jk	.	16g-Jk	.	.	.	.	16fLL	.	-za-	.	.	.	.	.	8B-	.	16fLL	.	.	.	.	.
.	.	.	.	16r	.	16r	.	16r	.	.	.	.	16g-JJ	.	.	.	.	.	.	.	.	.	16g-JJ	.	.	.	.	.
=38	=38	=38	=38	=38	=38	=38	=38	=38	=38	=38	=38	=38	=38	=38	=38	=38	=38	=38	=38	=38	=38	=38	=38	=38	=38	=38	=38	=38
4F	.	4F	.	4A	.	4c	.	4f	.	2.c	2.F	.	2.f	2.f	-lem!	.	1r	.	1r	1r	16cLL	.	2f	.	1r	.	1r	.
.	.	.	.	.	.	.	.	.	.	.	.	.	.	.	.	.	.	.	.	.	16d-X	.	.	.	.	.	.	.
.	.	.	.	.	.	.	.	.	.	.	.	.	.	.	.	.	.	.	.	.	16c	.	.	.	.	.	.	.
.	.	.	.	.	.	.	.	.	.	.	.	.	.	.	.	.	.	.	.	.	16B-JJ	.	.	.	.	.	.	.
8r	.	8r	.	2r	.	2r	.	2r	.	.	.	.	.	.	.	.	.	.	.	.	16ALL	.	.	.	.	.	.	.
.	.	.	.	.	.	.	.	.	.	.	.	.	.	.	.	.	.	.	.	.	16B-	.	.	.	.	.	.	.
8C	.	8C	.	.	.	.	.	.	.	.	.	.	.	.	.	.	.	.	.	.	16A	.	.	.	.	.	.	.
.	.	.	.	.	.	.	.	.	.	.	.	.	.	.	.	.	.	.	.	.	16G-XJJ	.	.	.	.	.	.	.
8FF	.	8FF	.	.	.	.	.	.	.	.	.	.	.	.	.	.	.	.	.	.	4F	.	2r	.	.	.	.	.
4r	.	4r	.	.	.	.	.	.	.	.	.	.	.	.	.	.	.	.	.	.	.	.	.	.	.	.	.	.
!	!	!	!	!LO:TX:a:t=arco	!	!	!	!LO:TX:a:t=arco	!	!	!	!	!	!	!	!	!	!	!	!	!	!	!	!	!	!	!	!
.	.	.	.	16E-XLL	.	4r	.	16g-XLL	.	8r	8r	.	8r	8r	.	.	.	.	.	.	4r	.	.	.	.	.	.	.
.	.	.	.	16F	.	.	.	16a	.	.	.	.	.	.	.	.	.	.	.	.	.	.	.	.	.	.	.	.
8F	.	8F	.	16G-X	.	.	.	16b-	.	8A	8F	.	8f	8f	Nie	.	.	.	.	.	.	.	.	.	.	.	.	.
.	.	.	.	16AJJ	.	.	.	16ccJJ	.	.	.	.	.	.	.	.	.	.	.	.	.	.	.	.	.	.	.	.
=39	=39	=39	=39	=39	=39	=39	=39	=39	=39	=39	=39	=39	=39	=39	=39	=39	=39	=39	=39	=39	=39	=39	=39	=39	=39	=39	=39	=39
!	!	!	!	!	!	!LO:TX:a:t=arco	!	!	!	!	!	!	!	!	!	!	!	!	!	!	!	!	!	!	!	!	!	!
4BB-	.	4BB-	.	4B-	.	2f	.	4dd-X	.	4B-	4BB-	.	4dd-X	4f	budź-	.	1r	.	1r	1r	1r	.	1r	.	1r	.	1r	.
8r	.	8r	.	8cL	.	.	.	8ccL	.	8cL	8BB-L	.	8ccL	8fL	-cie	.	.	.	.	.	.	.	.	.	.	.	.	.
8BB-	.	8BB-	.	8d-XJ	.	.	.	8b-J	.	8d-XJ	8BB-J	.	8b-J	8fJ	mi-	.	.	.	.	.	.	.	.	.	.	.	.	.
4F	.	4F	.	8AL	.	2f	.	4cc	.	8AL	4F	.	4cc	4f	-ło-	.	.	.	.	.	.	.	.	.	.	.	.	.
.	.	.	.	8B-J	.	.	.	.	.	8B-J	.	.	.	.	.	.	.	.	.	.	.	.	.	.	.	.	.	.
8r	.	8r	.	4c	.	.	.	4a	.	4c	4F	.	4a	4f	-ści,	.	.	.	.	.	.	.	.	.	.	.	.	.
16CLL	.	16CLL	.	.	.	.	.	.	.	.	.	.	.	.	.	.	.	.	.	.	.	.	.	.	.	.	.	.
16FJJ	.	16FJJ	.	.	.	.	.	.	.	.	.	.	.	.	.	.	.	.	.	.	.	.	.	.	.	.	.	.
=40	=40	=40	=40	=40	=40	=40	=40	=40	=40	=40	=40	=40	=40	=40	=40	=40	=40	=40	=40	=40	=40	=40	=40	=40	=40	=40	=40	=40
4E-X	.	4E-X	.	8d-XL	.	8g-XL	.	8b-L	.	8d-XL	8E-XL	.	8b-L	8g-XL	pó-	.	1r	.	1r	1r	1r	.	1r	.	1r	.	2.r	.
.	.	.	.	8d-J	.	8g-J	.	8b-J	.	8d-J	8E-J	.	8b-J	8g-J	-ki	.	.	.	.	.	.	.	.	.	.	.	.	.
8r	.	8r	.	12d-L	.	12g-L	.	12b-L	.	12d-L	12E-L	.	12b-L	12g-L	sa-	.	.	.	.	.	.	.	.	.	.	.	.	.
.	.	.	.	12c	.	12f	.	12a	.	12c	12F	.	12a	12f	-ma	.	.	.	.	.	.	.	.	.	.	.	.	.
16E-LL	.	16E-LL	.	.	.	.	.	.	.	.	.	.	.	.	.	.	.	.	.	.	.	.	.	.	.	.	.	.
.	.	.	.	12B-J	.	12e-XJ	.	12b-J	.	12B-J	12G-XJ	.	12b-J	12e-XJ	nie	.	.	.	.	.	.	.	.	.	.	.	.	.
16G-XJJ	.	16G-XJJ	.	.	.	.	.	.	.	.	.	.	.	.	.	.	.	.	.	.	.	.	.	.	.	.	.	.
8.FL	.	8.FL	.	4c	.	16fLL	.	4cc	.	4c	4F	.	4cc	16fLL	ze-	.	.	.	.	.	.	.	.	.	.	.	.	.
.	.	.	.	.	.	16g-	.	.	.	.	.	.	.	16g-	.	.	.	.	.	.	.	.	.	.	.	.	.	.
.	.	.	.	.	.	16a	.	.	.	.	.	.	.	16a	.	.	.	.	.	.	.	.	.	.	.	.	.	.
16CJk	.	16CJk	.	.	.	16b-JJ	.	.	.	.	.	.	.	16b-JJ	.	.	.	.	.	.	.	.	.	.	.	.	.	.
8FF	.	8FF	.	16cLL	.	16aLL	.	16ccLL	.	8.c	8.F	.	8.cc	8.a	-chce,	.	.	.	.	.	.	.	.	.	.	.	16ffLL	.
.	.	.	.	16F	.	16c	.	16a	.	.	.	.	.	.	.	.	.	.	.	.	.	.	.	.	.	.	16aa	.
8r	.	8r	.	16G-X	.	16d-X	.	16b-	.	.	.	.	.	.	.	.	.	.	.	.	.	.	.	.	.	.	16bb-	.
.	.	.	.	16AJJ	.	16e-JJ	.	16ccJJ	.	16c	16F	.	16f	16f	nie	.	.	.	.	.	.	.	.	.	.	.	16cccJJ	.
=41	=41	=41	=41	=41	=41	=41	=41	=41	=41	=41	=41	=41	=41	=41	=41	=41	=41	=41	=41	=41	=41	=41	=41	=41	=41	=41	=41	=41
4BB-	.	4BB-	.	4B-	.	2f	.	4dd-X	.	4B-	4BB-	.	4dd-X	4f	budź-	.	1r	.	1r	1r	1r	.	1r	.	1r	.	4ddd-X	.
8r	.	8r	.	8cL	.	.	.	8ccL	.	8cL	8BB-L	.	8ccL	8fL	-cie	.	.	.	.	.	.	.	.	.	.	.	8cccL	.
8BB-	.	8BB-	.	8d-XJ	.	.	.	8b-J	.	8d-XJ	8BB-J	.	8b-J	8fJ	mi-	.	.	.	.	.	.	.	.	.	.	.	8bb-J	.
4F	.	4F	.	8AL	.	2f	.	4cc	.	8AL	4F	.	4cc	4f	-ło-	.	.	.	.	.	.	.	.	.	.	.	8aaL	.
.	.	.	.	8B-J	.	.	.	.	.	8B-J	.	.	.	.	.	.	.	.	.	.	.	.	.	.	.	.	8bb-J	.
8r	.	8r	.	4c	.	.	.	4a	.	4c	4F	.	4a	4f	-ści,	.	.	.	.	.	.	.	.	.	.	.	4ccc	.
16CLL	.	16CLL	.	.	.	.	.	.	.	.	.	.	.	.	.	.	.	.	.	.	.	.	.	.	.	.	.	.
16FJJ	.	16FJJ	.	.	.	.	.	.	.	.	.	.	.	.	.	.	.	.	.	.	.	.	.	.	.	.	.	.
=42	=42	=42	=42	=42	=42	=42	=42	=42	=42	=42	=42	=42	=42	=42	=42	=42	=42	=42	=42	=42	=42	=42	=42	=42	=42	=42	=42	=42
4E-X	.	4E-X	.	8B-L	.	8e-XL	.	8g-XL	.	8B-L	8E-XL	.	8g-XL	8e-XL	pó-	.	1r	.	1r	1r	1r	.	1r	.	1r	.	8bb-L	.
.	.	.	.	8B-J	.	8e-J	.	8g-J	.	8B-J	8E-J	.	8g-J	8e-J	-ki	.	.	.	.	.	.	.	.	.	.	.	8gg-XJ	.
8r	.	8r	.	12B-L	.	12e-L	.	12g-L	.	12B-L	12E-L	.	12g-L	12e-L	sa-	.	.	.	.	.	.	.	.	.	.	.	12ee-XL	.
.	.	.	.	12B-	.	12g-X	.	12b-	.	12B-	12E-	.	12b-	12g-	-ma	.	.	.	.	.	.	.	.	.	.	.	12gg-	.
8E-	.	8E-	.	.	.	.	.	.	.	.	.	.	.	.	.	.	.	.	.	.	.	.	.	.	.	.	.	.
.	.	.	.	12B-J	.	12e-J	.	12g-J	.	12B-J	12E-J	.	12g-J	12e-J	nie	.	.	.	.	.	.	.	.	.	.	.	12bb-J	.
4F	.	4F	.	4A	.	4c	.	4f	.	(4A	(4F	.	(4f	(4c	ze-	.	.	.	.	.	.	.	.	.	.	.	4ff	.
4G-X	.	4G-X	.	4B-	.	4d-X	.	4e-X	.	4B-)	4G-X)	.	4e-)	4d-X)	.	.	.	.	.	.	.	.	.	.	.	.	16ee-LL	.
.	.	.	.	.	.	.	.	.	.	.	.	.	.	.	.	.	.	.	.	.	.	.	.	.	.	.	16ff	.
.	.	.	.	.	.	.	.	.	.	.	.	.	.	.	.	.	.	.	.	.	.	.	.	.	.	.	16gg-	.
.	.	.	.	.	.	.	.	.	.	.	.	.	.	.	.	.	.	.	.	.	.	.	.	.	.	.	16ee-JJ	.
*	*	*	*	*	*	*	*	*	*	*v	*v	*	*	*	*	*	*	*	*	*	*	*	*	*	*	*	*	*
*	*	*	*	*	*	*	*	*	*	*	*	*v	*v	*	*	*	*	*	*	*	*	*	*	*	*	*	*
=43	=43	=43	=43	=43	=43	=43	=43	=43	=43	=43	=43	=43	=43	=43	=43	=43	=43	=43	=43	=43	=43	=43	=43	=43	=43	=43
*M6/4	*	*M6/4	*	*M6/4	*	*M6/4	*	*M6/4	*	*M6/4	*	*M6/4	*	*	*M6/4	*	*M6/4	*M6/4	*M6/4	*	*M6/4	*	*M6/4	*	*M6/4	*
*	*	*	*	*	*	*	*	*	*	*^	*	*^	*	*	*	*	*	*	*	*	*	*	*	*	*	*
4F	.	4F	.	2.A	.	2.c	.	2.f	.	2.A	2.F	.	2.f	2.c	-chce.	.	1.r	.	1.r	1.r	1.r	.	1.r	.	1.r	.	2.ff	.
8r	.	8r	.	.	.	.	.	.	.	.	.	.	.	.	.	.	.	.	.	.	.	.	.	.	.	.	.	.
8C	.	8C	.	.	.	.	.	.	.	.	.	.	.	.	.	.	.	.	.	.	.	.	.	.	.	.	.	.
4FF	.	4FF	.	.	.	.	.	.	.	.	.	.	.	.	.	.	.	.	.	.	.	.	.	.	.	.	.	.
*	*	*	*	*	*	*	*	*	*	*v	*v	*	*	*	*	*	*	*	*	*	*	*	*	*	*	*	*	*
*	*	*	*	*	*	*	*	*	*	*	*	*v	*v	*	*	*	*	*	*	*	*	*	*	*	*	*	*
4.r	.	4.r	.	2r	.	2r	.	2r	.	2r	.	2r	.	.	.	.	.	.	.	.	.	.	.	.	2r	.
16r	.	16r	.	.	.	.	.	.	.	.	.	.	.	.	.	.	.	.	.	.	.	.	.	.	.	.
16B-	.	16B-	.	.	.	.	.	.	.	.	.	.	.	.	.	.	.	.	.	.	.	.	.	.	.	.
16ALL	.	16ALL	.	4r	.	4r	.	4r	.	4r	.	4r	.	.	.	.	.	.	.	.	.	.	.	.	4r	.
16G-X	.	16G-X	.	.	.	.	.	.	.	.	.	.	.	.	.	.	.	.	.	.	.	.	.	.	.	.
16F	.	16F	.	.	.	.	.	.	.	.	.	.	.	.	.	.	.	.	.	.	.	.	.	.	.	.
16E-XJJ	.	16E-XJJ	.	.	.	.	.	.	.	.	.	.	.	.	.	.	.	.	.	.	.	.	.	.	.	.
=44||	=44||	=44||	=44||	=44||	=44||	=44||	=44||	=44||	=44||	=44||	=44||	=44||	=44||	=44||	=44||	=44||	=44||	=44||	=44||	=44||	=44||	=44||	=44||	=44||	=44||	=44||
*M4/4	*	*M4/4	*	*M4/4	*	*M4/4	*	*M4/4	*	*M4/4	*	*M4/4	*	*	*M4/4	*	*M4/4	*M4/4	*M4/4	*	*M4/4	*	*M4/4	*	*M4/4	*
!	!	!	!	!LO:TX:a:t=pizz.	!	!LO:TX:a:t=pizz.	!	!LO:TX:a:t=pizz.	!	!	!	!	!	!	!	!	!	!	!	!	!	!	!	!	!	!
8FL	.	8FL	.	8A	.	8c	.	8f	.	1r	.	1r	.	.	1r	.	1r	1r	1r	.	8f'L	.	1r	.	1r	.
16FK	.	16FK	.	4r	.	4r	.	4r	.	.	.	.	.	.	.	.	.	.	.	.	16aL	.	.	.	.	.
8FJ	.	8FJ	.	.	.	.	.	.	.	.	.	.	.	.	.	.	.	.	.	.	16b-JJ	.	.	.	.	.
.	.	.	.	.	.	.	.	.	.	.	.	.	.	.	.	.	.	.	.	.	4cc	.	.	.	.	.
16r	.	16r	.	.	.	.	.	.	.	.	.	.	.	.	.	.	.	.	.	.	.	.	.	.	.	.
8C	.	8C	.	8A	.	8c	.	8f	.	.	.	.	.	.	.	.	.	.	.	.	.	.	.	.	.	.
8E-XL	.	8E-XL	.	8B-	.	8e-X	.	8g-X	.	.	.	.	.	.	.	.	.	.	.	.	8r	.	.	.	.	.
16E-K	.	16E-K	.	4r	.	4r	.	4r	.	.	.	.	.	.	.	.	.	.	.	.	8dd-X'	.	.	.	.	.
8E-	.	8E-	.	.	.	.	.	.	.	.	.	.	.	.	.	.	.	.	.	.	.	.	.	.	.	.
.	.	.	.	.	.	.	.	.	.	.	.	.	.	.	.	.	.	.	.	.	16ccLL	.	.	.	.	.
16BB-L	.	16BB-L	.	.	.	.	.	.	.	.	.	.	.	.	.	.	.	.	.	.	16b-	.	.	.	.	.
16E-	.	16E-	.	8B-	.	8e-	.	8g-	.	.	.	.	.	.	.	.	.	.	.	.	16a	.	.	.	.	.
16G-XJJ	.	16G-XJJ	.	.	.	.	.	.	.	.	.	.	.	.	.	.	.	.	.	.	16b-JJ	.	.	.	.	.
=45	=45	=45	=45	=45	=45	=45	=45	=45	=45	=45	=45	=45	=45	=45	=45	=45	=45	=45	=45	=45	=45	=45	=45	=45	=45	=45
8FL	.	8FL	.	8A	.	8c	.	8f	.	1r	.	1r	.	.	1r	.	1r	1r	1r	.	2cc	.	1r	.	8r	.
16FK	.	16FK	.	8r	.	8r	.	8r	.	.	.	.	.	.	.	.	.	.	.	.	.	.	.	.	16aaLL	.
8FJ	.	8FJ	.	.	.	.	.	.	.	.	.	.	.	.	.	.	.	.	.	.	.	.	.	.	16bb-JJ	.
.	.	.	.	4r	.	4r	.	4r	.	.	.	.	.	.	.	.	.	.	.	.	.	.	.	.	16aaLL	.
16r	.	16r	.	.	.	.	.	.	.	.	.	.	.	.	.	.	.	.	.	.	.	.	.	.	16gg-X	.
8C	.	8C	.	.	.	.	.	.	.	.	.	.	.	.	.	.	.	.	.	.	.	.	.	.	16ff	.
.	.	.	.	.	.	.	.	.	.	.	.	.	.	.	.	.	.	.	.	.	.	.	.	.	16ee-XJJ	.
8FF	.	8FF	.	2r	.	2r	.	2r	.	.	.	.	.	.	.	.	.	.	.	.	4.r	.	.	.	4ff	.
16r	.	16r	.	.	.	.	.	.	.	.	.	.	.	.	.	.	.	.	.	.	.	.	.	.	.	.
16B-	.	16B-	.	.	.	.	.	.	.	.	.	.	.	.	.	.	.	.	.	.	.	.	.	.	.	.
16ALL	.	16ALL	.	.	.	.	.	.	.	.	.	.	.	.	.	.	.	.	.	.	.	.	.	.	4r	.
16G-X	.	16G-X	.	.	.	.	.	.	.	.	.	.	.	.	.	.	.	.	.	.	.	.	.	.	.	.
16F	.	16F	.	.	.	.	.	.	.	.	.	.	.	.	.	.	.	.	.	.	16fLL	.	.	.	.	.
16E-XJJ	.	16E-XJJ	.	.	.	.	.	.	.	.	.	.	.	.	.	.	.	.	.	.	16e-JJ	.	.	.	.	.
=46	=46	=46	=46	=46	=46	=46	=46	=46	=46	=46	=46	=46	=46	=46	=46	=46	=46	=46	=46	=46	=46	=46	=46	=46	=46	=46
8FL	.	8FL	.	8A	.	8c	.	8f	.	1r	.	1r	.	.	1r	.	1r	1r	1r	.	8f'L	.	1r	.	1r	.
16FK	.	16FK	.	4r	.	4r	.	4r	.	.	.	.	.	.	.	.	.	.	.	.	16aL	.	.	.	.	.
8FJ	.	8FJ	.	.	.	.	.	.	.	.	.	.	.	.	.	.	.	.	.	.	16b-JJ	.	.	.	.	.
.	.	.	.	.	.	.	.	.	.	.	.	.	.	.	.	.	.	.	.	.	4cc	.	.	.	.	.
16r	.	16r	.	.	.	.	.	.	.	.	.	.	.	.	.	.	.	.	.	.	.	.	.	.	.	.
8C	.	8C	.	8A	.	8c	.	8f	.	.	.	.	.	.	.	.	.	.	.	.	.	.	.	.	.	.
8E-XL	.	8E-XL	.	8B-	.	8e-X	.	8g-X	.	.	.	.	.	.	.	.	.	.	.	.	8r	.	.	.	.	.
16E-K	.	16E-K	.	4r	.	4r	.	4r	.	.	.	.	.	.	.	.	.	.	.	.	8dd-X'	.	.	.	.	.
8E-	.	8E-	.	.	.	.	.	.	.	.	.	.	.	.	.	.	.	.	.	.	.	.	.	.	.	.
.	.	.	.	.	.	.	.	.	.	.	.	.	.	.	.	.	.	.	.	.	16ccLL	.	.	.	.	.
16BB-L	.	16BB-L	.	.	.	.	.	.	.	.	.	.	.	.	.	.	.	.	.	.	16b-	.	.	.	.	.
16E-	.	16E-	.	8B-	.	8e-	.	8g-	.	.	.	.	.	.	.	.	.	.	.	.	16a	.	.	.	.	.
16G-XJJ	.	16G-XJJ	.	.	.	.	.	.	.	.	.	.	.	.	.	.	.	.	.	.	16g-XJJ	.	.	.	.	.
=47	=47	=47	=47	=47	=47	=47	=47	=47	=47	=47	=47	=47	=47	=47	=47	=47	=47	=47	=47	=47	=47	=47	=47	=47	=47	=47
8FL	.	8FL	.	8A	.	8c	.	8f	.	1r	.	1r	.	.	1r	.	1r	1r	1r	.	2f	.	8r	.	1r	.
16FK	.	16FK	.	8r	.	8r	.	8r	.	.	.	.	.	.	.	.	.	.	.	.	.	.	8dd-X'	.	.	.
8FJ	.	8FJ	.	.	.	.	.	.	.	.	.	.	.	.	.	.	.	.	.	.	.	.	.	.	.	.
.	.	.	.	2r	.	2r	.	2r	.	.	.	.	.	.	.	.	.	.	.	.	.	.	16ccLL	.	.	.
16r	.	16r	.	.	.	.	.	.	.	.	.	.	.	.	.	.	.	.	.	.	.	.	16b-	.	.	.
8C	.	8C	.	.	.	.	.	.	.	.	.	.	.	.	.	.	.	.	.	.	.	.	16a	.	.	.
.	.	.	.	.	.	.	.	.	.	.	.	.	.	.	.	.	.	.	.	.	.	.	16g-XJJ	.	.	.
8FF	.	8FF	.	.	.	.	.	.	.	.	.	.	.	.	.	.	.	.	.	.	2r	.	4f	.	.	.
16r	.	16r	.	.	.	.	.	.	.	.	.	.	.	.	.	.	.	.	.	.	.	.	.	.	.	.
16B-	.	16B-	.	.	.	.	.	.	.	.	.	.	.	.	.	.	.	.	.	.	.	.	.	.	.	.
!	!	!	!	!LO:TX:a:t=arco	!	!LO:TX:a:t=arco	!	!LO:TX:a:t=arco	!	!	!	!	!	!	!	!	!	!	!	!	!	!	!	!	!	!
16ALL	.	16ALL	.	16ALL	.	16cLL	.	16fLL	.	.	.	.	.	.	.	.	.	.	.	.	.	.	4r	.	.	.
16G-X	.	16G-X	.	16B-	.	16d-X	.	16g-X	.	.	.	.	.	.	.	.	.	.	.	.	.	.	.	.	.	.
16F	.	16F	.	16c	.	16f	.	16a	.	.	.	.	.	.	.	.	.	.	.	.	.	.	.	.	.	.
16E-XJJ	.	16E-XJJ	.	16d-XJJ	.	16g-XJJ	.	16b-JJ	.	.	.	.	.	.	.	.	.	.	.	.	.	.	.	.	.	.
=48	=48	=48	=48	=48	=48	=48	=48	=48	=48	=48	=48	=48	=48	=48	=48	=48	=48	=48	=48	=48	=48	=48	=48	=48	=48	=48
8FL	.	8FL	.	8r	.	8r	.	8r	.	1r	.	1r	.	.	1r	.	1r	1r	1r	.	1r	.	1r	.	1r	.
16FK	.	16FK	.	16ALL	.	16fLL	.	16ccLL	.	.	.	.	.	.	.	.	.	.	.	.	.	.	.	.	.	.
8FJ	.	8FJ	.	16G-XJJ	.	16e-XJJ	.	16b-JJ	.	.	.	.	.	.	.	.	.	.	.	.	.	.	.	.	.	.
.	.	.	.	8A	.	8f	.	8cc	.	.	.	.	.	.	.	.	.	.	.	.	.	.	.	.	.	.
16r	.	16r	.	.	.	.	.	.	.	.	.	.	.	.	.	.	.	.	.	.	.	.	.	.	.	.
8C	.	8C	.	16r	.	16r	.	16r	.	.	.	.	.	.	.	.	.	.	.	.	.	.	.	.	.	.
.	.	.	.	16c	.	16a	.	16ff	.	.	.	.	.	.	.	.	.	.	.	.	.	.	.	.	.	.
8E-XL	.	8E-XL	.	(16e-XLL	.	(16ccLL	.	(16gg-XLL	.	.	.	.	.	.	.	.	.	.	.	.	.	.	.	.	.	.
.	.	.	.	16d-X)	.	16b-)	.	16ff)	.	.	.	.	.	.	.	.	.	.	.	.	.	.	.	.	.	.
16E-K	.	16E-K	.	(16d-	.	(16b-	.	(16ff	.	.	.	.	.	.	.	.	.	.	.	.	.	.	.	.	.	.
8E-	.	8E-	.	16cJJ)	.	16g-XJJ)	.	16ee-XJJ)	.	.	.	.	.	.	.	.	.	.	.	.	.	.	.	.	.	.
.	.	.	.	(16cLL	.	(16g-LL	.	(16ee-LL	.	.	.	.	.	.	.	.	.	.	.	.	.	.	.	.	.	.
16BB-L	.	16BB-L	.	16B-)	.	16f)	.	16dd-X)	.	.	.	.	.	.	.	.	.	.	.	.	.	.	.	.	.	.
16E-	.	16E-	.	(16B-	.	(16f	.	(16dd-	.	.	.	.	.	.	.	.	.	.	.	.	.	.	.	.	.	.
16G-XJJ	.	16G-XJJ	.	16G-JJ)	.	16e-JJ)	.	16b-JJ)	.	.	.	.	.	.	.	.	.	.	.	.	.	.	.	.	.	.
=49	=49	=49	=49	=49	=49	=49	=49	=49	=49	=49	=49	=49	=49	=49	=49	=49	=49	=49	=49	=49	=49	=49	=49	=49	=49	=49
8FL	.	8FL	.	2A	.	2f	.	2cc	.	1r	.	1r	.	.	1r	.	1r	1r	8r	.	1r	.	8r	.	1r	.
16FK	.	16FK	.	.	.	.	.	.	.	.	.	.	.	.	.	.	.	.	16ALL	.	.	.	16ccLL	.	.	.
8FJ	.	8FJ	.	.	.	.	.	.	.	.	.	.	.	.	.	.	.	.	16B-JJ	.	.	.	16dd-XJJ	.	.	.
.	.	.	.	.	.	.	.	.	.	.	.	.	.	.	.	.	.	.	16ALL	.	.	.	16ccLL	.	.	.
16r	.	16r	.	.	.	.	.	.	.	.	.	.	.	.	.	.	.	.	16G-X	.	.	.	16b-	.	.	.
8C	.	8C	.	.	.	.	.	.	.	.	.	.	.	.	.	.	.	.	16F	.	.	.	16a	.	.	.
.	.	.	.	.	.	.	.	.	.	.	.	.	.	.	.	.	.	.	16E-XJJ	.	.	.	16b-JJ	.	.	.
8FF	.	8FF	.	4r	.	4r	.	4r	.	.	.	.	.	.	.	.	.	.	4F	.	.	.	4cc	.	.	.
16r	.	16r	.	.	.	.	.	.	.	.	.	.	.	.	.	.	.	.	.	.	.	.	.	.	.	.
16B-	.	16B-	.	.	.	.	.	.	.	.	.	.	.	.	.	.	.	.	.	.	.	.	.	.	.	.
16ALL	.	16ALL	.	16ALL	.	16cLL	.	16fLL	.	.	.	.	.	.	.	.	.	.	4r	.	.	.	4r	.	.	.
16G-X	.	16G-X	.	16B-	.	16d-X	.	16g-X	.	.	.	.	.	.	.	.	.	.	.	.	.	.	.	.	.	.
16F	.	16F	.	16c	.	16f	.	16a	.	.	.	.	.	.	.	.	.	.	.	.	.	.	.	.	.	.
16E-XJJ	.	16E-XJJ	.	16d-XJJ	.	16g-XJJ	.	16b-JJ	.	.	.	.	.	.	.	.	.	.	.	.	.	.	.	.	.	.
=50	=50	=50	=50	=50	=50	=50	=50	=50	=50	=50	=50	=50	=50	=50	=50	=50	=50	=50	=50	=50	=50	=50	=50	=50	=50	=50
8FL	.	8FL	.	8r	.	8r	.	8r	.	1r	.	1r	.	.	1r	.	1r	1r	1r	.	1r	.	1r	.	1r	.
16FK	.	16FK	.	16ALL	.	16fLL	.	16ccLL	.	.	.	.	.	.	.	.	.	.	.	.	.	.	.	.	.	.
8FJ	.	8FJ	.	16G-XJJ	.	16e-XJJ	.	16b-JJ	.	.	.	.	.	.	.	.	.	.	.	.	.	.	.	.	.	.
.	.	.	.	8A	.	8f	.	8cc	.	.	.	.	.	.	.	.	.	.	.	.	.	.	.	.	.	.
16r	.	16r	.	.	.	.	.	.	.	.	.	.	.	.	.	.	.	.	.	.	.	.	.	.	.	.
8C	.	8C	.	16r	.	16r	.	16r	.	.	.	.	.	.	.	.	.	.	.	.	.	.	.	.	.	.
.	.	.	.	16c	.	16a	.	16ff	.	.	.	.	.	.	.	.	.	.	.	.	.	.	.	.	.	.
8E-XL	.	8E-XL	.	(16e-XLL	.	(16ccLL	.	(16gg-XLL	.	.	.	.	.	.	.	.	.	.	.	.	.	.	.	.	.	.
.	.	.	.	16d-X)	.	16b-)	.	16ff)	.	.	.	.	.	.	.	.	.	.	.	.	.	.	.	.	.	.
16E-K	.	16E-K	.	(16d-	.	(16b-	.	(16ff	.	.	.	.	.	.	.	.	.	.	.	.	.	.	.	.	.	.
8E-	.	8E-	.	16cJJ)	.	16g-XJJ)	.	16ee-XJJ)	.	.	.	.	.	.	.	.	.	.	.	.	.	.	.	.	.	.
.	.	.	.	(16cLL	.	(16g-LL	.	(16ee-LL	.	.	.	.	.	.	.	.	.	.	.	.	.	.	.	.	.	.
16BB-L	.	16BB-L	.	16B-)	.	16f)	.	16dd-X)	.	.	.	.	.	.	.	.	.	.	.	.	.	.	.	.	.	.
16E-	.	16E-	.	(16B-	.	(16f	.	(16dd-	.	.	.	.	.	.	.	.	.	.	.	.	.	.	.	.	.	.
16G-XJJ	.	16G-XJJ	.	16G-JJ)	.	16e-JJ)	.	16b-JJ)	.	.	.	.	.	.	.	.	.	.	.	.	.	.	.	.	.	.
=51	=51	=51	=51	=51	=51	=51	=51	=51	=51	=51	=51	=51	=51	=51	=51	=51	=51	=51	=51	=51	=51	=51	=51	=51	=51	=51
8FL	.	8FL	.	1A	.	1f	.	1cc	.	2.r	.	2.r	.	.	2.r	.	2.r	2.r	2.r	.	2.r	.	2.r	.	2.r	.
16FK	.	16FK	.	.	.	.	.	.	.	.	.	.	.	.	.	.	.	.	.	.	.	.	.	.	.	.
8FJ	.	8FJ	.	.	.	.	.	.	.	.	.	.	.	.	.	.	.	.	.	.	.	.	.	.	.	.
16r	.	16r	.	.	.	.	.	.	.	.	.	.	.	.	.	.	.	.	.	.	.	.	.	.	.	.
8C	.	8C	.	.	.	.	.	.	.	.	.	.	.	.	.	.	.	.	.	.	.	.	.	.	.	.
4FF	.	4FF	.	.	.	.	.	.	.	.	.	.	.	.	.	.	.	.	.	.	.	.	.	.	.	.
4r	.	4r	.	.	.	.	.	.	.	4r	.	4r	.	.	4r	.	4r	4r	4r	.	4r	.	4r	.	4r	.
==52	==52	==52	==52	==52	==52	==52	==52	==52	==52	==52	==52	==52	==52	==52	==52	==52	==52	==52	==52	==52	==52	==52	==52	==52	==52	==52
*-	*-	*-	*-	*-	*-	*-	*-	*-	*-	*-	*-	*-	*-	*-	*-	*-	*-	*-	*-	*-	*-	*-	*-	*-	*-	*-
!!!system-decoration: [(s1,s2,s3,s4)]{(s5,s6)}s7[(s8,s9)][(s10,s11s12,s13,s14)]
!!!YEM: Copyright by Tomasz Kozubek. All rights reserved
